!!!COM: Scriabin, Alexander
!!!OTL@@FR: Sonate no 9
!!!OTL@@EN: Sonata No. 9
!!!OPS: 68
!!!ODT: 1912–1913
!!!AGN: Sonata
**kern	**kern	**dynam	**kern	**dynam
*staff3	*staff2	*staff2/3	*staff1	*staff1/2
*Ipiano	*Ipiano	*	*Ipiano	*
*clefF4	*clefF4	*	*clefG2	*
*k[]	*k[]	*	*k[]	*
*X:	*X:	*	*X:	*
*M4/8	*M4/8	*	*M4/8	*
=1	=1	=1	=1	=1
2r	2r	.	8gL 8b	.
.	.	.	8c#XJ 8b-X	.
.	.	.	8fL 8a	.
.	.	.	8BnJ 8a-X	.
=2	=2	=2	=2	=2
2r	8c#XL 8f	.	[2g [2bn	.
.	8GJ 8e	.	.	.
.	8BL 8e-X	.	.	.
.	8FJ 8d	.	.	.
=3	=3	=3	=3	=3
2r	8c#X 8f	.	8gL] 8b]	.
.	8r	.	8c#XJ 8b-X	.
.	4r	.	8fL 8a	.
.	.	.	8BnJ 8a-X	.
=4	=4	=4	=4	=4
2r	8c#XL 8f	.	[2g [2bn	.
.	8GJ 8e	.	.	.
.	8BL 8e-X	.	.	.
.	8FJ 8d	.	.	.
*	*clefG2	*	*	*
!!LO:LB:g=original
=5	=5	=5	=5	=5
4r	8c#X 8f	.	8gL] 8b]	.
.	16.r	.	8c#XJ 8b-X	.
.	32e	.	.	.
24f>LL	[8fL	.	8gL 8cc-X	.
24d-X>	.	.	.	.
24E-X/JJ	.	.	.	.
8r	16.fL]	.	8d-XJ 8b-	.
.	32gJJk	.	.	.
=6	=6	=6	=6	=6
32a-X>LLL	[8a-XL	.	8b-XL 8ddn	.
32en>	.	.	.	.
32B-X/	.	.	.	.
32CJJJ	.	.	.	.
8r	16.a-L]	.	8eJ 8dd-X	.
.	32b-XJJk	.	.	.
40bn>LLL	[8bnL	.	8cc#XL 8ff	.
40g>	.	.	.	.
40c#X>	.	.	.	.
40G/	.	.	.	.
40AAnJJJ	.	.	.	.
8r	16.bL]	.	8gJ 8ee	.
.	32cc#XJJk	.	.	.
=7	=7	=7	=7	=7
48dd>LLL	4dd	.	8eeL 8gg#X	.
48a#X>	.	.	.	.
48e>	.	.	.	.
48A#X/	.	.	.	.
48E	.	.	.	.
48FF#XJJJ	.	.	.	.
8r	.	.	8a#XJ 8ggn	.
*	*clefF4	*	*	*
4AAAn 4EE-X 4BB-X	12r	.	4b-X 4ee-X 4gg-X 4bb-X	.
.	24G-X	.	.	.
.	24G-LL	.	.	.
.	24G-	.	.	.
.	24G-JJ	.	.	.
!!LO:LB:g=original
=8	=8	=8	=8	=8
*^	*^	*	*	*
12r	2BB-X	16G-XLL	8ryy	.	2r	.
.	.	[16E-X	.	.	.	.
24EE-X	.	.	.	.	.	.
16AAALL	.	16E-J]	8ryy	.	.	.
[16EE-JJ	.	32r	.	.	.	.
.	.	32GnJkk	.	.	.	.
16EE-LL]	.	4G-X	12r	.	.	.
16AAA	.	.	.	.	.	.
.	.	.	24B-X	.	.	.
16EE-	.	.	24B-LL	.	.	.
.	.	.	24B-	.	.	.
16AAAJJ	.	.	.	.	.	.
.	.	.	24B-JJ	.	.	.
*	*	*v	*v	*	*	*
=9	=9	=9	=9	=9	=9
12r	2D	16B-XLL	.	2r	.
.	.	[16Gn	.	.	.
24GG	.	.	.	.	.
16CC#XLL	.	16GJ]	.	.	.
[16GGJJ	.	32r	.	.	.
.	.	32BnJkk	.	.	.
16GGLL]	.	[4B-X	.	.	.
16CC#JJ	.	.	.	.	.
12GGL	.	.	.	.	.
24CC#Jk	.	.	.	.	.
=10	=10	=10	=10	=10	=10
24r	2D	4B-_	.	2r	.
24GGLL	.	.	.	.	.
[24CC#XJJ	.	.	.	.	.
12CC#L]	.	.	.	.	.
[24GGJk	.	.	.	.	.
16GGLL]	.	12B-L]	.	.	.
16CC#	.	.	.	.	.
.	.	24B-XJk	.	.	.
16GG	.	24B-LL	.	.	.
.	.	24B-	.	.	.
16CC#JJ	.	.	.	.	.
.	.	24B-JJ	.	.	.
*v	*v	*	*	*	*
*	*clefG2	*	*	*
!!LO:LB:g=original
=11	=11	=11	=11	=11
2r	8gL 8bn	.	2r	.
.	8c#XJ 8b-X	.	.	.
.	8fL 8a	.	.	.
.	8BnJ 8a-X	.	.	.
=12	=12	=12	=12	=12
8c#XL 8f	2g 2bn	.	2r	.
8GJ 8e	.	.	.	.
8BL 8e-X	.	.	.	.
8FJ 8d	.	.	.	.
=13	=13	=13	=13	=13
*^	*	*	*	*
8GL 8B	2c#X 2f	2r	.	2r	.
8C#XJ 8B-X	.	.	.	.	.
8FL 8A	.	.	.	.	.
8BBnJ 8A-X	.	.	.	.	.
*v	*v	*	*	*	*
=14	=14	=14	=14	=14
8G 8Bn	8c#XL 8f	.	2r	.
8r	8GJ 8e	.	.	.
4r	8BL 8e-X	.	.	.
.	8FJ 8d	.	.	.
=15	=15	=15	=15	=15
8GL 8B	8c#X 8f	.	2r	.
8C#XJ 8B-X	16.r	.	.	.
.	32en	.	.	.
*	*^	*	*	*
8GL 8c-X	4d-X	[8fL	.	.	.
8D-XJ 8B-	.	16.fL]	.	.	.
.	.	32gJJk	.	.	.
*	*v	*v	*	*	*
!!LO:LB:g=original
=16	=16	=16	=16	=16
*	*	*	*^	*
*	*clefF4	*	*	*	*
24B-X>LL	8dnL	.	4e	[8a-XL	.
24E	.	.	.	.	.
24CJJ	.	.	.	.	.
8r	8EJ 8d-X	.	.	16.a-L]	.
.	.	.	.	32b-XJJk	.
*	*clefG2	*	*	*	*
24c#X>LL	8fL	.	4g	[8bnL	.
24G	.	.	.	.	.
24AAnJJ	.	.	.	.	.
8r	8GJ 8e	.	.	16.bL]	.
.	.	.	.	32cc#XJJk	.
=17	=17	=17	=17	=17	=17
32e>LLL	8eL 8g#	.	4a#X	4dd	.
32A#X/	.	.	.	.	.
32E	.	.	.	.	.
32FF#XJJJ	.	.	.	.	.
8r	8A#J 8gn	.	.	.	.
*	*clefF4	*	*	*	*
4r	8G#XL 8c	.	4d	[8f#XL	.
.	8DJ 8B	.	.	16.f#L]	.
.	.	.	.	32g#XJJk	.
=18	=18	=18	=18	=18	=18
24B>LL	8d#XL	.	4e#X	[8anL	.
24E#X/	.	.	.	.	.
24C#XJJ	.	.	.	.	.
8r	8E#XJ 8dn	.	.	16.aL]	.
.	.	.	.	32bJJk	.
*	*clefG2	*	*	*	*
24d>LL	8dL 8g-X	.	4a-X	[8ccnL	.
24A-X/	.	.	.	.	.
24BB-XJJ	.	.	.	.	.
8r	8A-J 8f	.	.	16.ccL]	.
.	.	.	.	32ddJJk	.
=19	=19	=19	=19	=19	=19
32f>LLL	8anL	.	4bn	[8ee-XL	.
32Bn/	.	.	.	.	.
32F	.	.	.	.	.
32GGnJJJ	.	.	.	.	.
8r	8BJ 8a-X	.	.	16.ee-L]	.
.	.	.	.	32ffJJk	.
*	*clefF4	*	*	*	*
[8qBBB-X	.	.	.	.	.
4BBB-] 4EEn 4BB-X 4F	12r	.	4f 4b-X 4dd-X 4ff	4gg-X	.
.	24D-X	.	.	.	.
.	24D-LL	.	.	.	.
.	24D-	.	.	.	.
.	24D-JJ	.	.	.	.
*	*	*	*v	*v	*
!!LO:LB:g=original
=20	=20	=20	=20	=20
12r	16D-XLL	.	2r	.
.	[16BB-X	.	.	.
24EE	.	.	.	.
16BBB-XLL	16BB-J]	.	.	.
[16EEJJ	32r	.	.	.
.	32DnJkk	.	.	.
16EELL]	4D-X	.	.	.
16BBB-	.	.	.	.
16EE	.	.	.	.
16BBB-JJ	.	.	.	.
*	*clefG2	*	*	*
=21	=21	=21	=21	=21
*^	*	*	*	*
24BnLL	8e-XL	16r	.	2r	.
24F	.	.	.	.	.
.	.	8aL 8ff 8aa	.	.	.
24GGJJ	.	.	.	.	.
8r	8FJ 8dn	.	.	.	.
.	.	16a-XJk 16bn 16aa-X	.	.	.
*v	*v	*	*	*	*
*	*^	*	*	*
4AAA#X 4EEn 4BB	4b 4ee 4gg 4bb	12r	.	.	.
*	*	*clefF4	*	*	*
.	.	24G	.	.	.
.	.	24GLL	.	.	.
.	.	24G	.	.	.
.	.	24GJJ	.	.	.
*	*v	*v	*	*	*
=22	=22	=22	=22	=22
*^	*	*	*	*
12r	2BB	16GL	.	2r	.
.	.	[16E	.	.	.
24EE	.	.	.	.	.
16AAA#XLL	.	16EJ]	.	.	.
[16EEJJ	.	32r	.	.	.
.	.	32G#XJkk	.	.	.
16EELL]	.	12GnL	.	.	.
16AAA#	.	.	.	.	.
.	.	24GJk	.	.	.
16EE	.	24GLL	.	.	.
.	.	24G	.	.	.
16AAA#JJ	.	.	.	.	.
.	.	24GJJ	.	.	.
!!LO:LB:g=original
=23	=23	=23	=23	=23	=23
16r	[4.BB	24r	.	2r	.
.	.	24GLL	.	.	.
16EELL	.	.	.	.	.
.	.	[24G#XJJ	.	.	.
16AAA#X	.	4G#_	.	.	.
[16EEJJ	.	.	.	.	.
16EELL]	.	.	.	.	.
16AAA#JJ	.	.	.	.	.
12EEL	12BBL]	16G#LL]	.	.	.
.	.	64GnLL	.	.	.
.	.	64G#X	.	.	.
24AAA#Jk	24CJk	.	.	.	.
.	.	64c	.	.	.
.	.	64eJJJJ	.	.	.
*	*	*clefG2	*	*	*
=24	=24	=24	=24	=24	=24
24r	2D	[4.f	.	2r	.
24EELL	.	.	.	.	.
[24AAA#XJJ	.	.	.	.	.
12AAA#L]	.	.	.	.	.
[24EEJk	.	.	.	.	.
12EEL]	.	.	.	.	.
24AAA#Jk	.	.	.	.	.
12EEL	.	16fLL]	.	.	.
.	.	64GLL	.	.	.
.	.	64G#X	.	.	.
24AAA#Jk	.	.	.	.	.
.	.	64c	.	.	.
.	.	64eJJJJ	.	.	.
=25	=25	=25	=25	=25	=25
*	*^	*	*	*	*
24ryy	24r	8.DL	[8.fL	.	2r	.
24EE\LL	[12EE/	.	.	.	.	.
[24AAA#XJJ	.	.	.	.	.	.
4.AAA#] 4.EE\]	4.ryy	.	.	.	.	.
.	.	16CJk	64fLLL]	.	.	.
.	.	.	64e	.	.	.
.	.	.	64c	.	.	.
.	.	.	64G#XJJJJ	.	.	.
.	.	8.BBL	[8.GnL	.	.	.
.	.	16CJk	64GLLL]	.	.	.
.	.	.	64G#X	.	.	.
.	.	.	64c	.	.	.
.	.	.	64eJJJJ	.	.	.
!!LO:LB:g=original
=26	=26	=26	=26	=26	=26	=26
24ryy	24r	8.DL	[8.fL	.	2r	.
24EE\LL	[12EE/	.	.	.	.	.
[24AAA#XJJ	.	.	.	.	.	.
4.AAA#] 4.EE\]	4.ryy	.	.	.	.	.
.	.	16CJk	64fLLL]	.	.	.
.	.	.	64e	.	.	.
.	.	.	64c	.	.	.
.	.	.	64G#XJJJJ	.	.	.
.	.	8.BB	8.GnL	.	.	.
.	.	16r	64A-XLLL	.	.	.
.	.	.	64d	.	.	.
.	.	.	64g-X	.	.	.
.	.	.	64b-XJJJJ	.	.	.
=27	=27	=27	=27	=27	=27	=27
24ryy	24r	8.A-XL	[8.cc-XL	.	2r	.
24EE\LL	[12EE/	.	.	.	.	.
[24BBB-XJJ	.	.	.	.	.	.
4.BBB-] 4.EE\]	4.ryy	.	.	.	.	.
.	.	16G-XJk	64cc-LLL]	.	.	.
.	.	.	64b-X	.	.	.
.	.	.	64g-X	.	.	.
.	.	.	64dnJJJJ	.	.	.
.	.	8.FL	[8.d-XL	.	.	.
.	.	16G-Jk	64d-LLL]	.	.	.
.	.	.	64dn	.	.	.
.	.	.	64g-	.	.	.
.	.	.	64b-JJJJ	.	.	.
=28	=28	=28	=28	=28	=28	=28
24ryy	24r	8.A-XL	[8.cc-XL	.	2r	.
24EE\LL	[12EE/	.	.	.	.	.
[24BBB-XJJ	.	.	.	.	.	.
4.BBB-] 4.EE\]	4.ryy	.	.	.	.	.
.	.	16G-XJk	64cc-LLL]	.	.	.
.	.	.	64b-X	.	.	.
.	.	.	64g-X	.	.	.
.	.	.	64dnJJJJ	.	.	.
.	.	8.F	8.d-XL	.	.	.
.	.	16r	64dnLLL	.	.	.
.	.	.	64g#X	.	.	.
.	.	.	64ccn	.	.	.
.	.	.	64eeJJJJ	.	.	.
!!LO:LB:g=original
=29	=29	=29	=29	=29	=29	=29
24ryy	24r	8r	[16ffLL	.	2r	.
24EE\LL	[12EE/	.	.	.	.	.
.	.	.	64ffLL]	.	.	.
.	.	.	64ee	.	.	.
[24AAA#XJJ	.	.	.	.	.	.
.	.	.	64cc	.	.	.
.	.	.	64g#XJJJJ	.	.	.
4.AAA#] 4.EE\]	4.ryy	4BBn 4Bn	[16gnLL	.	.	.
.	.	.	64gLL]	.	.	.
.	.	.	64g#X	.	.	.
.	.	.	64cc	.	.	.
.	.	.	64eeJJJJ	.	.	.
.	.	.	[16ffLL	.	.	.
.	.	.	64ffLL]	.	.	.
.	.	.	64ee	.	.	.
.	.	.	64cc	.	.	.
.	.	.	64g#XJJJJ	.	.	.
.	.	16BB 16B	16gnLL	.	.	.
.	.	16r	64a-XLL	.	.	.
.	.	.	64dd	.	.	.
.	.	.	64gg-X	.	.	.
.	.	.	64bb-XJJJJ	.	.	.
*	*v	*v	*	*	*	*
=30	=30	=30	=30	=30	=30
[8qBBB-X [8qEE	.	.	.	.	.
8BBB-] 8EE]	8A-X 8d 8g-X	8ccc-X	.	2r	.
8ryy	4BBB- 4EE 4C-X 4F	4d-X	.	.	.
8ryy	.	.	.	.	.
8ryy	16BBB- 16EE 16C- 16F	16d-LL	.	.	.
.	16r	64gnLL	.	.	.
.	.	64g#X	.	.	.
.	.	64cc	.	.	.
.	.	64eenJJJJ	.	.	.
!!LO:LB:g=original
=31	=31	=31	=31	=31	=31
*	*^	*	*	*	*
24ryy	24r	8r	[16ffLL	.	2r	.
24EE\LL	[12EE/	.	.	.	.	.
.	.	.	64ffLL]	.	.	.
.	.	.	64ee	.	.	.
[24AAA#XJJ	.	.	.	.	.	.
.	.	.	64cc	.	.	.
.	.	.	64g#XJJJJ	.	.	.
4.AAA#] 4.EE\]	4.ryy	4BBn 4Bn	[16gnLL	.	.	.
.	.	.	64gLL]	.	.	.
.	.	.	64g#X	.	.	.
.	.	.	64cc	.	.	.
.	.	.	64eeJJJJ	.	.	.
.	.	.	[16ffLL	.	.	.
.	.	.	64ffLL]	.	.	.
.	.	.	64ee	.	.	.
.	.	.	64cc	.	.	.
.	.	.	64g#XJJJJ	.	.	.
.	.	16BB 16B	16gnLL	.	.	.
.	.	16r	64a-XLL	.	.	.
.	.	.	64dd	.	.	.
.	.	.	64gg-X	.	.	.
.	.	.	64bb-XJJJJ	.	.	.
*	*v	*v	*	*	*	*
=32	=32	=32	=32	=32	=32
[8qBBB-X [8qEE	.	.	.	.	.
4BBB-] 4EE]	4..A-X 4..d 4..g-X	12ccc-X	.	2r	.
.	.	24b-X	.	.	.
.	.	[8cc-X	.	.	.
4r	.	8.cc-L]	.	.	.
.	16r	64dd-XLLL	.	.	.
.	.	64ddn	.	.	.
.	.	64gg-X	.	.	.
.	.	64bb-XJJJJ	.	.	.
=33	=33	=33	=33	=33	=33
[8qBBB-X [8qEE	.	.	.	.	.
2BBB-] 2EE]	2A-X 2d 2g-X	12ccc-X	.	2r	.
.	.	24b-X	.	.	.
.	.	[8cc-X	.	.	.
.	.	4cc-_	.	.	.
*v	*v	*	*	*	*
*clefG2	*	*	*	*
!!LO:LB:g=original
=34	=34	=34	=34	=34
4r	4cc-]	.	2r	.
*^	*	*	*	*
8ryy	16r	4r	.	.	.
.	16d-XLL	.	.	.	.
[8d	16dn	.	.	.	.
.	[16g-XJJ	.	.	.	.
=35	=35	=35	=35	=35	=35
2A-X 2d]	4g-_	12r	.	2r	.
.	.	12b-XL	.	.	.
.	.	[12cc-XJ	.	.	.
.	12g-L]	6cc-]	.	.	.
.	12gn	.	.	.	.
.	12g-XJ	12b-	.	.	.
=36	=36	=36	=36	=36	=36
2c-X 2d-X	[4f	12r	.	2r	.
.	.	12b-XL	.	.	.
.	.	[12cc-XJ	.	.	.
.	6f]	6cc-]	.	.	.
.	24g-XLL	12b-	.	.	.
.	24fJJ	.	.	.	.
=37	=37	=37	=37	=37	=37
.	[8qe	.	.	.	.
[2dn [2g#X	2e_	12r	.	2r	.
.	.	12a#X\L	.	.	.
.	.	[12bnJ	.	.	.
.	.	6b]	.	.	.
.	.	12a#	.	.	.
=38	=38	=38	=38	=38	=38
2d] 2g#]	2e]	12r	.	2r	.
.	.	12a#X\L	.	.	.
.	.	[12bJ	.	.	.
.	.	6b]	.	.	.
.	.	12a#	.	.	.
*v	*v	*	*	*	*
!!LO:LB:g=original
=39	=39	=39	=39	=39
2e 2g#X	12r	.	2r	.
.	12a#X\L	.	.	.
.	[12bJ	.	.	.
.	6b]	.	.	.
.	12a#	.	.	.
=40	=40	=40	=40	=40
2f 2gn 2b	12bL	.	2r	.
.	12dd	.	.	.
.	[12eeJ	.	.	.
.	6ee]	.	.	.
.	12dd	.	.	.
=41	=41	=41	=41	=41
*^	*	*	*	*
[4.a-X [4.b-X	[4dd	8r	.	2r	.
.	.	[8gg	.	.	.
.	16dd]	16ggLL]	.	.	.
.	16r	16ddJJ	.	.	.
16a-] 16b-]	8r	24ccLL	.	.	.
.	.	24.g	.	.	.
16r	.	.	.	.	.
.	.	48a-XJJk	.	.	.
*v	*v	*	*	*	*
=42	=42	=42	=42	=42
4r	2cc-X	.	2r	.
12r	.	.	.	.
[24a-X	.	.	.	.
12a-L]	.	.	.	.
24a-Jk	.	.	.	.
=43	=43	=43	=43	=43
2a-X 2ccn/	12r	.	2r	.
.	12ddL	.	.	.
.	[12ee-XJ	.	.	.
.	6ee-]	.	.	.
.	12dd	.	.	.
!!LO:LB:g=original
=44	=44	=44	=44	=44
2an 2b	12dd#XL	.	2r	.
.	12ff#X	.	.	.
.	[12gg#XJ	.	.	.
.	6gg#]	.	.	.
.	12ff#	.	.	.
=45	=45	=45	=45	=45
*^	*	*	*	*
[4.cc [4.ddn	[4ff#X	8r	.	2r	.
.	.	[8bb	.	.	.
.	16ff#]	16bbLL]	.	.	.
.	16r	16ff#XJJ	.	.	.
16cc] 16dd]	8r	24eeLL	.	.	.
.	.	24.b	.	.	.
16r	.	.	.	.	.
.	.	48ccJJk	.	.	.
*v	*v	*	*	*	*
=46	=46	=46	=46	=46
*	*^	*	*	*
2r	2ee-X	4r	.	2r	.
.	.	12r	.	.	.
.	.	[24ccc	.	.	.
.	.	12cccL]	.	.	.
.	.	24cccJk	.	.	.
*clefF4	*	*	*	*	*
*	*v	*v	*	*	*
=47	=47	=47	=47	=47
*M3/8	*M3/8	*	*M3/8	*
*	*^	*	*	*
12r	24r	8ccc	.	4.r	.
.	[12b	.	.	.	.
24f#X	.	.	.	.	.
24cLL	12bL]	8r	.	.	.
24DJJ	.	.	.	.	.
24r	24f#XJk	.	.	.	.
8r	24enLL	8r	.	.	.
.	24.B	.	.	.	.
.	48cJJk	.	.	.	.
!!LO:LB:g=original
=48	=48	=48	=48	=48	=48
*^	*	*	*	*	*
4.FFn 4.BB 4.A	12r	4.e-X	12r	.	4.r	.
.	.	.	16qaLL	.	.	.
.	.	.	16qddJJ	.	.	.
.	24g	.	[24ee-X	.	.	.
.	8g-XL	.	12ee-L]	.	.	.
.	.	.	16qaLL	.	.	.
.	.	.	16qddJJ	.	.	.
.	.	.	[24ee-Jk	.	.	.
.	8fJ	.	12ee-L]	.	.	.
.	.	.	16qaLL	.	.	.
.	.	.	16qddJJ	.	.	.
.	.	.	24ee-Jk	.	.	.
*	*	*v	*v	*	*	*
=49	=49	=49	=49	=49	=49
16DD 16D	16F#X 16c 16en	16r	.	4.r	.
*v	*v	*	*	*	*
16qDLL	.	.	.	.
16qc	.	.	.	.
16qf#XJJ	.	.	.	.
*clefG2	*	*	*	*
48eLLL 48ee	[16bb	.	.	.
48cc	.	.	.	.
48f#XJJJ	.	.	.	.
*clefF4	*	*	*	*
24cLL	12bbL]	.	.	.
24DJJ	.	.	.	.
24r	24ff#XJk	.	.	.
8r	24eenLL	.	.	.
.	24.b	.	.	.
.	48ccJJk	.	.	.
*clefG2	*	*	*	*
=50	=50	=50	=50	=50
*^	*^	*	*	*
4.Fn 4.B 4.a	12r	4.ee-X	12r	.	4.r	.
.	.	.	16qaaLL	.	.	.
.	.	.	16qbb	.	.	.
.	.	.	16qdddJJ	.	.	.
.	24gg	.	[24eee-X	.	.	.
.	8gg-XL	.	12eee-L]	.	.	.
.	.	.	16qaaLL	.	.	.
.	.	.	16qbb	.	.	.
.	.	.	16qdddJJ	.	.	.
.	.	.	[24eee-Jk	.	.	.
.	8ffJ	.	12eee-L]	.	.	.
.	.	.	16qaaLL	.	.	.
.	.	.	16qbb	.	.	.
.	.	.	16qdddJJ	.	.	.
.	.	.	24eee-Jk	.	.	.
*	*	*v	*v	*	*	*
*v	*v	*	*	*	*
*clefF4	*	*	*	*
!!LO:LB:g=original
=51||	=51||	=51||	=51||	=51||
*M4/8	*M4/8	*	*M4/8	*
*	*	*	*^	*
*	*	*	*	*^	*
2BB-X 2A-X 2d	24r	.	2ff-X\	8ryy	8r	.
.	24b-XLL	.	.	.	.	.
.	[24cc-XJJ	.	.	.	.	.
.	.	.	.	[8qaa-\	16qaa-XLL	.
.	.	.	.	.	16qeee-XJJ	.
.	4cc-]	.	.	4.ryy	4.aa-] 4.fff-X	.
.	8b-	.	.	.	.	.
=52	=52	=52	=52	=52	=52	=52
2D-X 2c-X 2fn	24r	.	2ee-X\	8ryy	8r	.
.	24b-XLL	.	.	.	.	.
.	[24cc-XJJ	.	.	.	.	.
.	.	.	.	[8qgg\	16qggLL	.
.	.	.	.	.	16qdddJJ	.
.	4cc-]	.	.	4.ryy	4.gg] 4.eee-X	.
.	8b-	.	.	.	.	.
=53	=53	=53	=53	=53	=53	=53
[2En [2dn [2g#X	24r	.	[2dd\	8ryy	8r	.
.	24a#X\LL	.	.	.	.	.
.	[24bnJJ	.	.	.	.	.
.	.	.	.	[8qff#\	16qff#XLL	.
.	.	.	.	.	16qccc#XJJ	.
.	4b]	.	.	4.ryy	4.ff#] 4.ddd	.
.	8a#	.	.	.	.	.
=54	=54	=54	=54	=54	=54	=54
2E] 2d] 2g#]	24r	.	2dd\]	8ryy	8r	.
.	24a#X\LL	.	.	.	.	.
.	[24bJJ	.	.	.	.	.
.	.	.	.	[8qff#\	16qff#XLL	.
.	.	.	.	.	16qccc#XJJ	.
.	4b]	.	.	4.ryy	4.ff#] 4.ddd	.
.	8a#	.	.	.	.	.
*	*	*	*	*v	*v	*
*	*	*	*v	*v	*
!!LO:LB:g=original
=55	=55	=55	=55	=55
*M5/8	*M5/8	*	*M5/8	*
*	*^	*	*	*
[4.EE [4.D	[4.G#X [4.d [4.f#X	24r	.	24r	.
.	.	24a#XLL	.	24ff#XLL 24gg#X	.
.	.	[24bJJ	.	[24ccc#XJJ [24ddd	.
.	.	4.b_	.	24ccc#LL] 24ddd]	.
.	.	.	.	24ff# 24gg#	.
.	.	.	.	[24ccc#JJ [24ddd	.
.	.	.	.	24ccc#LL] 24ddd]	.
.	.	.	.	24ff# 24gg#	.
.	.	.	.	[24ccc#JJ [24ddd	.
4EE] 4D]	4G#] 4d] 4f#]	.	.	16ccc#LL] 16ddd]	.
.	.	.	.	16ff#JJ 16gg#	.
.	.	12bL]	.	12ccc#L 12ddd	.
.	.	24a#XJk	.	24ff#Jk 24gg#	.
*	*v	*v	*	*	*
=56	=56	=56	=56	=56
*	*	*	*8va	*
8r	24b/LL	.	24eeeLL 24fffn	.
.	24dd	.	24aan 24bb	.
.	[24eeJJ	.	[24eeeJJ [24fff	.
24r	4.ee_	.	24eeeLL] 24fff]	.
24b>LL	.	.	24aa 24bb	.
24fn>JJ	.	.	[24eeeJJ [24fff	.
24B/LL	.	.	24eeeLL] 24fff]	.
24Fn	.	.	24aa 24bb	.
24GGnJJ	.	.	[24eeeJJ [24fff	.
8r	.	.	16eeeLL] 16fff]	.
.	.	.	16aaJJ 16bb	.
8r	12ee/L]	.	12eeeL 12fff	.
.	24ddJk	.	24aaJk 24bb	.
=57	=57	=57	=57	=57
24r	[4.gg	.	24r	.
24dd>LL	.	.	24gggLL 24aaa-X	.
24a-X>JJ	.	.	24cccJJ 24ddd	.
24d>LL	.	.	12gggL 12aaa-	.
24A-X/	.	.	.	.
24BB-XJJ	.	.	24cccJk 24ddd	.
8r	.	.	12gggL 12aaa-	.
.	.	.	24cccJk 24ddd	.
4r	12gg/L]	.	12gggL 12aaa-	.
.	24ddJk	.	24cccJk 24ddd	.
.	24ccLL	.	12gggL 12aaa-	.
.	24.g	.	.	.
.	.	.	24cccJk 24ddd	.
.	48aJJk	.	.	.
!!LO:LB:g=original
=58	=58	=58	=58	=58
24r	[4.cc-X	.	24gggLL 24aaa-X	.
24f>LL	.	.	24ccc-X 24eee--	.
24c-X/JJ	.	.	[24gggJJ [24aaa-	.
24D-XLL	.	.	24gggLL] 24aaa-]	.
24DD-XJJ	.	.	24ccc- 24eee--	.
24r	.	.	[24gggJJ [24aaa-	.
8r	.	.	24gggLL] 24aaa-]	.
.	.	.	24aa-X 24ccc-	.
.	.	.	[24eeenJJ [24fff	.
4r	4cc-/]	.	24eeeLL] 24fff]	.
.	.	.	24ff 24aa-	.
.	.	.	[24ddd-XJJ [24eee--	.
.	.	.	24ddd-LL] 24eee--\]	.
.	.	.	24ee-- 24ff	.
.	.	.	48bb-XJJk 48ccc-	.
*	*	*	*X8va	*
.	.	.	48r	.
=59	=59	=59	=59	=59
*M4/8	*M4/8	*	*M4/8	*
24r	24r	.	24r	.
24ddn>LL	[12gg	.	24ggLL	.
24a-X>JJ	.	.	[24aa-XJJ	.
24d>LL	8gg_	.	4aa-_	.
24A-X/	.	.	.	.
24BB-XJJ	.	.	.	.
4r	12gg/L]	.	.	.
.	24ddJk	.	.	.
.	24ccn/LL	.	16aa-LL]	.
.	24g	.	.	.
.	.	.	64ggLL	.
.	.	.	64aa-	.
.	24a-XJJ	.	.	.
.	.	.	64cccn	.
.	.	.	64eeenJJJJ	.
!!LO:LB:g=original
=60	=60	=60	=60	=60
*^	*	*	*	*
2AA#X 2E 2d	2bn	[4.fff	.	2r	.
.	.	16fffLL]	.	.	.
.	.	64ggLL	.	.	.
.	.	64gg#X	.	.	.
.	.	64ccc	.	.	.
.	.	64eeeJJJJ	.	.	.
=61	=61	=61	=61	=61	=61
4AA#X 4E 4d	8r	[16fffLL	.	2r	.
.	.	64fffLL]	.	.	.
.	.	64eee	.	.	.
.	.	64ccc	.	.	.
.	.	64gg#XJJJJ	.	.	.
.	8b	[16ggnLL	.	.	.
.	.	64ggLL]	.	.	.
.	.	64gg#X	.	.	.
.	.	64ccc	.	.	.
.	.	64eeeJJJJ	.	.	.
8r	8r	24fff	.	.	.
.	.	24dd-XLL	.	.	.
.	.	[24ddnJJ	.	.	.
[8qBBB-X [8qEE	.	.	.	.	.
8BBB-] 8EE]	16FLL 16f	16ddLL]	.	.	.
.	16G-XJJ 16g-X	64dd-XLL	.	.	.
.	.	64ddn	.	.	.
.	.	64gg-X	.	.	.
.	.	64bb-XJJJJ	.	.	.
=62	=62	=62	=62	=62	=62
24r	2A-X 2a-X	[4.ccc-X	.	2r	.
24EELL	.	.	.	.	.
[24BBB-XJJ	.	.	.	.	.
12BBB-L]	.	.	.	.	.
[24EEJk	.	.	.	.	.
12EEL]	.	.	.	.	.
24BBB-Jk	.	.	.	.	.
12EEL	.	16ccc-LL]	.	.	.
.	.	64dd-XLL	.	.	.
.	.	64ddn	.	.	.
24BBB-Jk	.	.	.	.	.
.	.	64gg-X	.	.	.
.	.	64bb-XJJJJ	.	.	.
!!LO:LB:g=original
=63	=63	=63	=63	=63	=63
*	*^	*	*	*	*
24ryy	24r	8r	[16ccc-XLL	.	2r	.
24EE\LL	[12EE/	.	.	.	.	.
.	.	.	64ccc-LL]	.	.	.
.	.	.	64bb-X	.	.	.
[24BBB-XJJ	.	.	.	.	.	.
.	.	.	64gg-X	.	.	.
.	.	.	64ddJJJJ	.	.	.
4BBB-] 4EE\]	4ryy	8F 8f	[16dd-XLL	.	.	.
.	.	.	64dd-LL]	.	.	.
.	.	.	64ddn	.	.	.
.	.	.	64gg-	.	.	.
.	.	.	64bb-JJJJ	.	.	.
.	.	8r	24ccc-	.	.	.
.	.	.	24gnLL	.	.	.
.	.	.	[24g#XJJ	.	.	.
.	[8qAAA#X [8qEE	.	.	.	.	.
8ryy	8AAA#] 8EE]	16BBnLL 16Bn	16g#LL]	.	.	.
.	.	16CnJJ 16cn	64gnLL	.	.	.
.	.	.	64g#X	.	.	.
.	.	.	64ccn	.	.	.
.	.	.	64eeJJJJ	.	.	.
*	*v	*v	*	*	*	*
=64	=64	=64	=64	=64	=64
24r	2D 2d	[4.ff	.	2r	.
24EELL	.	.	.	.	.
[24AAA#XJJ	.	.	.	.	.
12AAA#L]	.	.	.	.	.
[24EEJk	.	.	.	.	.
12EEL]	.	.	.	.	.
24AAA#Jk	.	.	.	.	.
12EEL	.	16ffLL]	.	.	.
.	.	64gLL	.	.	.
.	.	64g#X	.	.	.
24AAA#Jk	.	.	.	.	.
.	.	64cc	.	.	.
.	.	64eeJJJJ	.	.	.
!!LO:LB:g=original
=65	=65	=65	=65	=65	=65
*	*^	*	*	*	*
24ryy	24r	8.DL 8.d	[8.ffL	.	2r	.
24EE\LL	[12EE/	.	.	.	.	.
[24AAA#XJJ	.	.	.	.	.	.
4.AAA#] 4.EE\]	4.ryy	.	.	.	.	.
.	.	16CJk 16c	64ffLLL]	.	.	.
.	.	.	64ee	.	.	.
.	.	.	64cc	.	.	.
.	.	.	64g#XJJJJ	.	.	.
.	.	8.BBL 8.B	[8.gnL	.	.	.
.	.	16CJk 16c	64gLLL]	.	.	.
.	.	.	64g#X	.	.	.
.	.	.	64cc	.	.	.
.	.	.	64eeJJJJ	.	.	.
=66	=66	=66	=66	=66	=66	=66
24ryy	24r	8.DL 8.d	[8.ffL	.	2r	.
24EE\LL	[12EE/	.	.	.	.	.
[24AAA#XJJ	.	.	.	.	.	.
4.AAA#] 4.EE\]	4.ryy	.	.	.	.	.
.	.	16CJk 16c	64ffLLL]	.	.	.
.	.	.	64ee	.	.	.
.	.	.	64cc	.	.	.
.	.	.	64g#XJJJJ	.	.	.
.	.	8.BB 8.B	8.gnL	.	.	.
.	.	.	.	.	.	.
.	.	16r	64d-XLLL	.	.	.
.	.	.	64dn	.	.	.
.	.	.	64g-X	.	.	.
.	.	.	64b-XJJJJ	.	.	.
=67	=67	=67	=67	=67	=67	=67
24ryy	24r	8.A-XL	[8.cc-XL	.	2r	.
24EE\LL	[12EE/	.	.	.	.	.
[24BBB-XJJ	.	.	.	.	.	.
8BBB-] 8EE\]	8ryy	.	.	.	.	.
.	.	16G-XJk	64cc-LLL]	.	.	.
.	.	.	64b-X	.	.	.
.	.	.	64g-X	.	.	.
.	.	.	64dJJJJ	.	.	.
*	*v	*v	*	*	*	*
4BBB- 4EE	4F	4d-X	.	.	.
=68	=68	=68	=68	=68	=68
4BBB-X 4EE 4C-X	4F	4d-X	.	2r	.
4BBB- 4EE 4C-	4F	4d-	.	.	.
*v	*v	*	*	*	*
*	*clefF4	*	*	*
!!LO:LB:g=original
=69||	=69||	=69||	=69||	=69||
2r	8B-XL 8dn	.	2r	.
.	8EJ 8d-X	.	.	.
.	8A-XL 8cn	.	.	.
.	8DnJ 8c-X	.	.	.
=70	=70	=70	=70	=70
8EL 8A-X	2B-X 2dn	.	2r	.
8BB-XJ 8G	.	.	.	.
8DL 8G-X	.	.	.	.
8AA-XJ 8F	.	.	.	.
=71	=71	=71	=71	=71
4E 4A-X	8B-XL 8d	.	2r	.
.	8EJ 8d-X	.	.	.
4r	8A-XL 8c	.	.	.
.	8DnJ 8c-X	.	.	.
=72	=72	=72	=72	=72
8EL 8A-X	[2B-X [2dn	.	2r	.
8BB-XJ 8G	.	.	.	.
8DL 8G-X	.	.	.	.
8AA-XJ 8F	.	.	.	.
=73	=73	=73	=73	=73
8C 8E	4.B-] 4.d]	.	2r	.
4.GG-X 4.E-X	.	.	.	.
.	8B-- 8d-X	.	.	.
=74	=74	=74	=74	=74
*^	*	*	*	*
4r	32GG-XKLL 32E-X	4A-X 4c	.	2r	.
.	[16.DnJJ [16.G-X	.	.	.	.
.	8D] 8G-]	.	.	.	.
4GGG-X 4CC 4AA-X	4r	4A- 4c 4a-X	.	.	.
!!LO:LB:g=original
=75	=75	=75	=75	=75	=75
16r	2GGn	12r	.	2r	.
16CCLL	.	.	.	.	.
.	.	[24E-X	.	.	.
16FFF#X	.	12E-L]	.	.	.
[16CCJJ	.	.	.	.	.
.	.	[24E-Jk	.	.	.
16CCLL]	.	12E-L]	.	.	.
16FFF#	.	.	.	.	.
.	.	24E-Jk	.	.	.
16CC	.	12E-L	.	.	.
16FFF#JJ	.	.	.	.	.
.	.	24E-Jk	.	.	.
=76	=76	=76	=76	=76	=76
12r	2AA-X	16E-XLL	.	2r	.
.	.	[16C	.	.	.
24CC	.	.	.	.	.
16GGG-XLL	.	16CJ]	.	.	.
[16CCJJ	.	32r	.	.	.
.	.	32EnJkk	.	.	.
16CCLL]	.	4E-X	.	.	.
16GGG-	.	.	.	.	.
16CC	.	.	.	.	.
16GGG-JJ	.	.	.	.	.
*v	*v	*	*	*	*
=77	=77	=77	=77	=77
2r	8A-XL 8c	.	2r	.
.	8DJ 8c-X	.	.	.
.	8G-XL 8B-X	.	.	.
.	8CnJ 8B--	.	.	.
=78	=78	=78	=78	=78
8DL 8G-X/	2A-X 2cn	.	2r	.
8AA-XJ 8F	.	.	.	.
8CL 8F-X	.	.	.	.
8GG-XJ 8E-X	.	.	.	.
=79	=79	=79	=79	=79
4D 4G-X	8A-XL 8c	.	2r	.
.	8DJ 8c-X	.	.	.
4r	8G-XL 8B-X	.	.	.
.	8CnJ 8B--	.	.	.
!!LO:LB:g=original
=80	=80	=80	=80	=80
8DL 8G-X/	[2A-X [2cn	.	2r	.
8AA-XJ 8F	.	.	.	.
8CL 8F-X	.	.	.	.
8GG-XJ 8E-X	.	.	.	.
=81	=81	=81	=81	=81
8BB-X 8D	4.A-] 4.c]	.	2r	.
4.FF-X 4.D-X	.	.	.	.
.	8Gn 8Bn	.	.	.
=82	=82	=82	=82	=82
*^	*	*	*	*
4r	32EEKLL 32C#X	4F#X 4A#X	.	2r	.
.	[16.BB#XJJ [16.E	.	.	.	.
.	8BB#] 8E]	.	.	.	.
4EEE 4AAA#X 4FF#X	4r	4F# 4A# 4f#X	.	.	.
=83	=83	=83	=83	=83	=83
16r	2FFn	12r	.	2r	.
16AAA#XLL	.	.	.	.	.
.	.	[24C#X	.	.	.
16EEE	.	12C#L]	.	.	.
[16AAA#JJ	.	.	.	.	.
.	.	[24C#Jk	.	.	.
16AAA#LL]	.	12C#L]	.	.	.
16EEE	.	.	.	.	.
.	.	24C#Jk	.	.	.
16AAA#	.	12C#L	.	.	.
16EEEJJ	.	.	.	.	.
.	.	24C#Jk	.	.	.
=84	=84	=84	=84	=84	=84
12r	4.FF#X	16C#XLL	.	2r	.
.	.	[16AA#X	.	.	.
24AAA#X	.	.	.	.	.
16EEELL	.	16AA#J]	.	.	.
[16AAA#JJ	.	32r	.	.	.
.	.	32C##XJkk	.	.	.
*	*	*^	*	*	*
16AAA#LL]	.	4C#X	12r	.	.	.
16EEE	.	.	.	.	.	.
.	.	.	24E	.	.	.
16AAA#	8GG	.	24ELL	.	.	.
.	.	.	24E	.	.	.
16EEEJJ	.	.	.	.	.	.
.	.	.	24EJJ	.	.	.
*	*	*v	*v	*	*	*
!!LO:LB:g=original
=85	=85	=85	=85	=85	=85
16r	4GG#X	24ELL	.	2r	.
.	.	24C#XJ	.	.	.
16CC#XLL	.	.	.	.	.
.	.	48r	.	.	.
.	.	48E#XJkk	.	.	.
16GGGn	.	[4.En	.	.	.
[16CC#JJ	.	.	.	.	.
16CC#LL]	[4AA	.	.	.	.
16GGG	.	.	.	.	.
16CC#	.	.	.	.	.
16GGGJJ	.	.	.	.	.
=86	=86	=86	=86	=86	=86
24r	2AA]	4E_	.	2r	.
24CC#XLL	.	.	.	.	.
[24GGGJJ	.	.	.	.	.
12GGGL]	.	.	.	.	.
[24CC#Jk	.	.	.	.	.
12CC#L]	.	12EL]	.	.	.
24GGGJk	.	24EJk	.	.	.
16CC#LL	.	24ELL	.	.	.
.	.	24E	.	.	.
16GGGJJ	.	.	.	.	.
.	.	24EJJ	.	.	.
*v	*v	*	*	*	*
*	*clefG2	*	*	*
=87||	=87||	=87||	=87||	=87||
*	*^	*	*	*
.	16qE<LL	.	.	.	.
.	16qA#X<	.	.	.	.
.	16qe\	.	.	.	.
.	16qa#XJJ	.	.	.	.
4FFF#X 4FF#X	2g#X	12r	.	2r	.
.	.	12b#XL	.	.	.
.	.	[12cc#XJ	.	.	.
*clefG2	*	*	*	*	*
64a#XLLLL	.	6cc#]	.	.	.
64eJJJJ	.	.	.	.	.
32r	.	.	.	.	.
64f#XLLLL	.	.	.	.	.
64c#XJJJJ	.	.	.	.	.
32r	.	.	.	.	.
64a#LLLL	.	.	.	.	.
64eJJJJ	.	.	.	.	.
32r	.	.	.	.	.
.	.	12b#	.	.	.
64c#LLLL	.	.	.	.	.
64F#XJJJJ	.	.	.	.	.
32r	.	.	.	.	.
*clefF4	*	*	*	*	*
!!LO:LB:g=original
=88	=88	=88	=88	=88	=88
.	8qa#X	.	.	.	.
64eLLLL	8g#X	16cc#XLL	.	2r	.
64A#XJJJJ	.	.	.	.	.
32r	.	.	.	.	.
64F#XLLLL	.	16eeJJ	.	.	.
64C#XJJJJ	.	.	.	.	.
32r	.	.	.	.	.
64A#LLLL 64e	32dd#XLLL	[8ff#X	.	.	.
64EJJJJ	.	.	.	.	.
32r	32cc#	.	.	.	.
64C#XLLLL	32a#X	.	.	.	.
64FF#XJJJJ	.	.	.	.	.
32r	32g#JJJ	.	.	.	.
64A#LLLL 64e	32dd#LLL	6ff#]	.	.	.
64EJJJJ	.	.	.	.	.
32r	32cc#	.	.	.	.
64FF#LLLL	32a#	.	.	.	.
64CC#XJJJJ	.	.	.	.	.
32r	32g#JJJ	.	.	.	.
64A#LLLL 64e	32dd#LLL	.	.	.	.
64EJJJJ	.	.	.	.	.
32r	32cc#	.	.	.	.
.	.	12ee	.	.	.
64FF#LLLL	32a#	.	.	.	.
64FFF#XJJJJ	.	.	.	.	.
32r	32g#JJJ	.	.	.	.
*	*v	*v	*	*	*
=89	=89	=89	=89	=89
64CCCnLLLL	8r	.	2r	.
64CCnJJJJ	.	.	.	.
32r	.	.	.	.
64GGnLLLL	.	.	.	.
64EJJJJ	.	.	.	.
32r	.	.	.	.
64CCLLLL	[8aan	.	.	.
64GGJJJJ	.	.	.	.
32r	.	.	.	.
64ELLLL	.	.	.	.
64B-XJJJJ	.	.	.	.
32r	.	.	.	.
64GGLLLL	16aaLL]	.	.	.
64EJJJJ	.	.	.	.
32r	.	.	.	.
64B-LLLL	16eeJJ	.	.	.
64eJJJJ	.	.	.	.
32r	.	.	.	.
64ELLLL	24ddnLL	.	.	.
64B-JJJJ	.	.	.	.
32r	.	.	.	.
.	24.a	.	.	.
32e	.	.	.	.
32r	.	.	.	.
.	48b-XJJk	.	.	.
!!LO:LB:g=original
=90	=90	=90	=90	=90
*^	*^	*	*	*
2AA 2E 2Bn	8r	2c#X 2g 2cc#X	16r	.	2r	.
.	.	.	64ff#XLLLL 64gg	.	.	.
.	.	.	64bJJJJ 64cc#	.	.	.
.	.	.	32r	.	.	.
.	16qG>LL	.	.	.	.	.
.	16qc#X>JJ	.	.	.	.	.
.	[8f#X>	.	64bLLLL 64cc#	.	.	.
.	.	.	64ff#JJJJ 64gg	.	.	.
.	.	.	32r	.	.	.
.	.	.	64ff#LLLL 64gg	.	.	.
.	.	.	64bJJJJ 64cc#	.	.	.
.	.	.	32r	.	.	.
.	16f#>LL]	.	64bLLLL 64cc#	.	.	.
.	.	.	64ff#JJJJ 64gg	.	.	.
.	.	.	32r	.	.	.
.	16c#/JJ	.	64ff#LLLL 64gg	.	.	.
.	.	.	64bJJJJ 64cc#	.	.	.
.	.	.	32r	.	.	.
.	24BLL	.	64bLLLL 64cc#	.	.	.
.	.	.	64ff#JJJJ 64gg	.	.	.
.	.	.	32r	.	.	.
.	24F#X	.	.	.	.	.
.	.	.	64ff#LLLL 64gg	.	.	.
.	.	.	64bJJJJ 64cc#	.	.	.
.	24GJJ	.	.	.	.	.
.	.	.	32r	.	.	.
=91	=91	=91	=91	=91	=91	=91
.	.	16qc#XLL	.	.	.	.
.	.	16qf#XJJ	.	.	.	.
8r	2A#X	2g#X	12r	.	2r	.
.	.	.	12b#XL	.	.	.
64a#XLLLL	.	.	.	.	.	.
64eJJJJ	.	.	.	.	.	.
32r	.	.	.	.	.	.
.	.	.	[12cc#XJ	.	.	.
64c#XLLLL	.	.	.	.	.	.
64F#XJJJJ	.	.	.	.	.	.
32r	.	.	.	.	.	.
64eLLLL	.	.	6cc#]	.	.	.
64A#JJJJ	.	.	.	.	.	.
32r	.	.	.	.	.	.
64F#LLLL	.	.	.	.	.	.
64C#XJJJJ	.	.	.	.	.	.
32r	.	.	.	.	.	.
64A#LLLL 64e	.	.	.	.	.	.
64EJJJJ	.	.	.	.	.	.
32r	.	.	.	.	.	.
.	.	.	12b#	.	.	.
64C#LLLL	.	.	.	.	.	.
64FF#XJJJJ	.	.	.	.	.	.
32r	.	.	.	.	.	.
!!LO:LB:g=original
=92	=92	=92	=92	=92	=92	=92
2GGn 2Cn 2B-X 2e	8r	2a-X	24dd-XLL	.	2r	.
.	.	.	24ee	.	.	.
.	.	.	[24ff#XJJ	.	.	.
.	4.d-X	.	4ff#]	.	.	.
.	.	.	8een	.	.	.
*	*	*v	*v	*	*	*
*	*	*clefF4	*	*	*
=93	=93	=93	=93	=93	=93
16r	[2GG#X	12r	.	2r	.
16CC#XLL	.	.	.	.	.
.	.	[24E	.	.	.
16FFF##X	.	12EL]	.	.	.
[16CC#JJ	.	.	.	.	.
.	.	[24EJk	.	.	.
16CC#LL]	.	12EL]	.	.	.
16FFF##	.	.	.	.	.
.	.	24EJk	.	.	.
16CC#	.	12EL	.	.	.
16FFF##JJ	.	.	.	.	.
.	.	24EJk	.	.	.
=94	=94	=94	=94	=94	=94
16r	2GG#]	24ELL	.	2r	.
.	.	24C#XJ	.	.	.
16CC#XLL	.	.	.	.	.
.	.	48r	.	.	.
.	.	48E#XJkk	.	.	.
16FFF##X	.	4.En	.	.	.
[16CC#JJ	.	.	.	.	.
16CC#LL]	.	.	.	.	.
16FFF##	.	.	.	.	.
16CC#	.	.	.	.	.
16FFF##JJ	.	.	.	.	.
*v	*v	*	*	*	*
*	*clefG2	*	*	*
=95	=95	=95	=95	=95
24r>	24r	.	2r	.
24a-X>LL	24ccnLL	.	.	.
24f-X>JJ	[24dd-XJJ	.	.	.
24B-XLL	4dd-_/	.	.	.
24F-X	.	.	.	.
24GG-XJJ	.	.	.	.
24GGnLL	.	.	.	.
24Cn	.	.	.	.
24B-JJ	.	.	.	.
24e/LL	12dd-L]	.	.	.
24gn>JJ	.	.	.	.
24r>	24ccJk	.	.	.
*	*clefF4	*	*	*
!!LO:LB:g=original
=96	=96	=96	=96	=96
*^	*	*	*	*
16r	2GG#X	24ELL	.	2r	.
.	.	24C#XJ	.	.	.
16CC#XLL	.	.	.	.	.
.	.	48r	.	.	.
.	.	48E#XJkk	.	.	.
16FFF##X	.	[8En	.	.	.
[16CC#JJ	.	.	.	.	.
16CC#LL]	.	12EL]	.	.	.
16FFF##	.	.	.	.	.
.	.	24EJk	.	.	.
16CC#	.	24ELL	.	.	.
.	.	24E	.	.	.
16FFF##JJ	.	.	.	.	.
.	.	24EJJ	.	.	.
*v	*v	*	*	*	*
*	*clefG2	*	*	*
=97	=97	=97	=97	=97
24r>	24r	.	2r	.
24a-X>LL	24ccnLL	.	.	.
24f-XJJ	[24dd-XJJ	.	.	.
24B-X/LL	4dd-_/	.	.	.
24F-X	.	.	.	.
24GG-XJJ	.	.	.	.
24GGn/LL	.	.	.	.
24Cn	.	.	.	.
24B-JJ	.	.	.	.
24e/LL	12dd-L]	.	.	.
24gn>JJ	.	.	.	.
24r>	24ccJk	.	.	.
=98	=98	=98	=98	=98
24r>	24cc#XLL	.	2r	.
24bn>LL	24ee	.	.	.
24g>JJ	[24ff#XJJ	.	.	.
24c#X>LL	4ff#_	.	.	.
24G	.	.	.	.
24AAJJ	.	.	.	.
24AA#X/LL	.	.	.	.
24D#X	.	.	.	.
24c#>JJ	.	.	.	.
24f##X>LL	12ff#L]	.	.	.
24a#X>JJ	.	.	.	.
24r>	24eeJk	.	.	.
!!LO:LB:g=original
=99	=99	=99	=99	=99
24r>	24r	.	2r	.
24ddn>LL	[12aan	.	.	.
24b-X>JJ	.	.	.	.
24e>LL	4aa_	.	.	.
24B-X/	.	.	.	.
24CnJJ	.	.	.	.
24C#X/LL	.	.	.	.
24F#X	.	.	.	.
24e>JJ	.	.	.	.
24a#X>LL	12aaL]	.	.	.
24cc#X>JJ	.	.	.	.
24r>	[24aanJk	.	.	.
=100	=100	=100	=100	=100
24E/LL	8aa_	.	2r	.
24An	.	.	.	.
24g>JJ	.	.	.	.
24cc#X>LL	12aaL]	.	.	.
24ee>JJ	.	.	.	.
24r>	[24aaJk	.	.	.
24GLL	8aa_	.	.	.
24cn	.	.	.	.
24b-X>JJ	.	.	.	.
24ee>LL	12aaL]	.	.	.
24gg>JJ	.	.	.	.
24r>	[24aaJk	.	.	.
*clefG2	*	*	*	*
=101	=101	=101	=101	=101
*^	*	*	*	*
*	*^	*	*	*	*
*	*	*^	*	*	*	*
24B-XLL	[12.B-	24ryy	8rff	12aaL]	.	2r	.
24e	.	[12e/	.	.	.	.	.
[24g-XJJ	.	.	.	[24aaJk	.	.	.
*	*	*v	*v	*	*	*	*
*	*v	*v	*	*	*	*
4.g-] 4.B-] 4.e]	4dd-X	12aaL]	.	.	.
.	.	[24aaJk	.	.	.
.	.	12aaL]	.	.	.
.	.	24eeJk	.	.	.
.	16ddn	24ddnLL	.	.	.
.	.	24a	.	.	.
.	16r	.	.	.	.
.	.	24b-XJJ	.	.	.
*v	*v	*	*	*	*
*clefF4	*	*	*	*
!!LO:LB:g=original
=102	=102	=102	=102	=102
*^	*^	*	*	*
16EE-XLL 16AA	2F-X	12cL	2f-X 2a 2dd-X	.	2r	.
16AA	.	.	.	.	.	.
.	.	[24cJk	.	.	.	.
16EE-	.	12cL]	.	.	.	.
[16AAJJ	.	.	.	.	.	.
.	.	[24cJk	.	.	.	.
16AALL]	.	12cL]	.	.	.	.
16EE-	.	.	.	.	.	.
.	.	24cJk	.	.	.	.
16AA	.	24cLL	.	.	.	.
.	.	24c	.	.	.	.
16EE-JJ	.	.	.	.	.	.
.	.	24cJJ	.	.	.	.
*v	*v	*	*	*	*	*
*	*v	*v	*	*	*
*clefG2	*	*	*	*
=103	=103	=103	=103	=103
*^	*	*	*	*
*	*^	*	*	*	*
*	*	*^	*	*	*	*
24B-XLL	[12.B-	24ryy	8rff	12r	.	2r	.
24e	.	[12en/	.	.	.	.	.
[24g-XJJ	.	.	.	[24aa	.	.	.
*	*	*v	*v	*	*	*	*
*	*v	*v	*	*	*	*
4.B-] 4.e] 4.g-]	4dd-X	12aaL]	.	.	.
.	.	[24aaJk	.	.	.
.	.	12aaL]	.	.	.
.	.	24eeJk	.	.	.
.	16ddn	24ddn/LL	.	.	.
.	.	24a	.	.	.
.	16r	.	.	.	.
.	.	24b-XJJ	.	.	.
*v	*v	*	*	*	*
*clefF4	*	*	*	*
=104	=104	=104	=104	=104
*^	*^	*	*	*
16EE-XLL 16AA	4F-X	12cL	4f-X 4a 4dd-X	.	2r	.
16AA	.	.	.	.	.	.
.	.	[24cJk	.	.	.	.
16EE-	.	12cL]	.	.	.	.
16AAJJ	.	.	.	.	.	.
.	.	24cJk	.	.	.	.
*clefG2	*clefG2	*	*	*	*	*
4B-X 4en 4g-X	8dd-XL	4r	24r	.	.	.
.	.	.	24aaLL	.	.	.
.	.	.	24eeJJ	.	.	.
.	16ddnJk	.	24ddnLL	.	.	.
.	.	.	24a	.	.	.
.	16r	.	.	.	.	.
.	.	.	24b-XJJ	.	.	.
*v	*v	*	*	*	*	*
*	*v	*v	*	*	*
*clefF4	*	*	*	*
!!LO:LB:g=original
=105||	=105||	=105||	=105||	=105||
*	*	*	*^	*
4E-X 4fn>	4r	.	16r	4dd-X	.
.	.	.	8gL 8cc-X	.	.
.	.	.	16d-XJk 16b-X	.	.
24d-X>LL	8d-XL 8f	.	16r	4r	.
24G	.	.	.	.	.
.	.	.	8gL 8cc-	.	.
24E-JJ	.	.	.	.	.
8r	8GJ 8f-X	.	.	.	.
.	.	.	16d-Jk 16b-	.	.
*	*	*	*v	*v	*
=106	=106	=106	=106	=106
24en>LL	8enL 8a-X	.	16r	.
24B-X/	.	.	.	.
.	.	.	8b-XL 8ddn	.
24CnJJ	.	.	.	.
8r	8B-XJ 8g	.	.	.
.	.	.	16eJk 16dd-X	.
32g>LLL	8gL 8bn	.	16r	.
32c#X>	.	.	.	.
32G/	.	.	8cc#XL 8ff	.
32AAnJJJ	.	.	.	.
8r	8c#XJ 8b-X	.	.	.
.	.	.	16gJk 16ee	.
=107	=107	=107	=107	=107
40a#X>LLL	8a#XL 8dd	.	16r	.
40e>	.	.	.	.
40A#X/	.	.	.	.
.	.	.	8eeL 8gg#X	.
40E	.	.	.	.
40FF#XJJJ	.	.	.	.
8r	8eJ 8cc#X	.	.	.
.	.	.	16a#XJk 16ggn	.
24e-X>LL	8e-XL 8g	.	16r	.
24An	.	.	.	.
.	.	.	8anL 8dd-X	.
24FnJJ	.	.	.	.
8r	8AnJ 8g-X	.	.	.
.	.	.	16e-XJk 16ccn	.
!!LO:LB:g=original
=108	=108	=108	=108	=108
24f#X>LL	8f#XL 8b-X	.	16r	.
24cn	.	.	.	.
.	.	.	8ccL 8een	.
24DnJJ	.	.	.	.
8r	8cJ 8a	.	.	.
.	.	.	16f#XJk 16ee-X	.
32a>LLL	8aL 8cc#X	.	16r	.
32d#X>	.	.	.	.
32A/	.	.	8dd#XL 8gg	.
32BBnJJJ	.	.	.	.
8r	8d#XJ 8ccn	.	.	.
.	.	.	16aJk 16ff#X	.
=109	=109	=109	=109	=109
40cc>LLL	8ccL 8ff-X	.	16r	.
40g-X>	.	.	.	.
40c>	.	.	.	.
.	.	.	8gg-XL 8bb-X	.
40G-X/	.	.	.	.
40AA-XJJJ	.	.	.	.
8r	8g-XJ 8ee-X	.	.	.
.	.	.	16ccJk 16bb--	.
[4GG#X [4D [4An	[4f#X [4cc	.	[4een [4gg#X	.
=110	=110	=110	=110	=110
*^	*^	*	*	*
16GG#LL] 16D]	2A]	12r	2f#] 2cc]	.	2ee] 2gg#]	.
16D	.	.	.	.	.	.
.	.	[24c	.	.	.	.
16GG#X	.	12cL]	.	.	.	.
[16DJJ	.	.	.	.	.	.
.	.	[24cJk	.	.	.	.
16DLL]	.	12cL]	.	.	.	.
16GG#	.	.	.	.	.	.
.	.	24cJk	.	.	.	.
16D	.	12cL	.	.	.	.
16GG#JJ	.	.	.	.	.	.
.	.	24cJk	.	.	.	.
*v	*v	*	*	*	*	*
!!LO:LB:g=original
=111	=111	=111	=111	=111	=111
4GG#X 4F#X	4c	16.r	.	2r	.
.	.	32a#X	.	.	.
.	.	12f#XL	.	.	.
.	.	24anJk	.	.	.
[4GG# [4D [4A	[4c	[4e [4g#X	.	.	.
=112	=112	=112	=112	=112	=112
*^	*	*	*	*	*
16GG#LL] 16D]	2A]	12cL]	2e] 2g#]	.	2r	.
16D	.	.	.	.	.	.
.	.	[24cJk	.	.	.	.
16GG#X	.	12cL]	.	.	.	.
[16DJJ	.	.	.	.	.	.
.	.	[24cJk	.	.	.	.
16DLL]	.	12cL]	.	.	.	.
16GG#	.	.	.	.	.	.
.	.	24cJk	.	.	.	.
16D	.	24cLL	.	.	.	.
.	.	24c	.	.	.	.
16GG#JJ	.	.	.	.	.	.
.	.	24cJJ	.	.	.	.
*v	*v	*	*	*	*	*
=113	=113	=113	=113	=113	=113
4GG#X 4F#X	16.ryy	16.r	.	2r	.
.	[32B#X	32a#X	.	.	.
.	8B#]	12f#XL	.	.	.
.	.	24anJk	.	.	.
4AA 4D	16.ryy	16.r	.	.	.
.	[32c	32g#X	.	.	.
.	8c]	12eL	.	.	.
.	.	24gnJk	.	.	.
=114	=114	=114	=114	=114	=114
4GG#X 4F#X	16.ryy	16.r	.	2r	.
.	[32B#X	32a#X	.	.	.
.	8B#]	12f#XL	.	.	.
.	.	24anJk	.	.	.
4AA 4D	16.ryy	16.r	.	.	.
.	[32c	32g#X	.	.	.
.	8c]	12eL	.	.	.
.	.	24gnJk	.	.	.
!!LO:LB:g=original
=115	=115	=115	=115	=115	=115
4GG#X 4F#X 4B#X	16.r	16r	.	2r	.
.	.	16cc##X	.	.	.
.	32a#X	.	.	.	.
.	12f#XL	4dd#X	.	.	.
.	24anJk	.	.	.	.
4AA 4Dn 4cn	16.r	.	.	.	.
.	32b-X	.	.	.	.
.	12f#L	8ddn	.	.	.
.	24aJk	.	.	.	.
=116	=116	=116	=116	=116	=116
*	*	*^	*	*	*
8GG#X 8F#X 8B#X	16.rA	8rf	16dd#XLL	.	2r	.
.	.	.	16ff#XJJ	.	.	.
.	32a#X\	.	.	.	.	.
4.CC##X 4.GG# 4.F# 4.B#	12f#X\L	24ee#X/LL	4gg#X	.	.	.
.	.	24dd#	.	.	.	.
.	24anJk	24b#XJJ	.	.	.	.
.	16.rA	24ee#/LL	.	.	.	.
.	.	24dd#	.	.	.	.
.	.	24b#JJ	.	.	.	.
.	32a#X\	.	.	.	.	.
.	12f#\L	24ee#/LL	8ff#	.	.	.
.	.	24dd#	.	.	.	.
.	24anJk	24b#JJ	.	.	.	.
*	*	*v	*v	*	*	*
=117	=117	=117	=117	=117	=117
*^	*	*	*	*	*
*	*^	*	*	*	*	*
16rFF	2F#/X	4re	16.ryy	16.r	.	2r	.
16GG#X\LL	.	.	.	.	.	.	.
.	.	.	[32B#X	32a#X	.	.	.
16CC##X	.	.	8B#_	12f#XL	.	.	.
[16GG#JJ	.	.	.	.	.	.	.
.	.	.	.	[24anJk	.	.	.
16GG#\LL]	.	12r	4B#]	4a]	.	.	.
16CC##	.	.	.	.	.	.	.
.	.	24D#X	.	.	.	.	.
16GG#	.	12D#L	.	.	.	.	.
16CC##JJ	.	.	.	.	.	.	.
.	.	24D#Jk	.	.	.	.	.
!!LO:LB:g=original
=118	=118	=118	=118	=118	=118	=118	=118
16rFF	2F#X/	4re	16.ryy	16.r	.	2r	.
16GG#X\LL	.	.	.	.	.	.	.
.	.	.	[32B#X	32a#X	.	.	.
16CC##X	.	.	8B#_	12f#XL	.	.	.
[16GG#JJ	.	.	.	.	.	.	.
.	.	.	.	[24anJk	.	.	.
16GG#\LL]	.	12r	4B#]	4a]	.	.	.
16CC##	.	.	.	.	.	.	.
.	.	24D#X	.	.	.	.	.
16GG#	.	12D#L	.	.	.	.	.
16CC##JJ	.	.	.	.	.	.	.
.	.	24D#Jk	.	.	.	.	.
*	*v	*v	*	*	*	*	*
*v	*v	*	*	*	*	*
=119||	=119||	=119||	=119||	=119||	=119||
24B#XLL	16.r	16r	.	2r	.
24F#X	.	.	.	.	.
.	.	16cc##X	.	.	.
24GG#XJJ	.	.	.	.	.
.	32a#X	.	.	.	.
8r	12f#XL	4dd#X	.	.	.
.	24anJk	.	.	.	.
4AA 4Dn 4cn	16.r	.	.	.	.
.	32b-X	.	.	.	.
.	12f#L	8ddn	.	.	.
.	24aJk	.	.	.	.
=120	=120	=120	=120	=120	=120
4C 4G-X 4d-X	16.r	[4dd-X	.	2r	.
.	32b-X	.	.	.	.
.	12g-XL	.	.	.	.
.	24b--Jk	.	.	.	.
4E-X 4An 4f-X	16.r	8dd-_	.	.	.
.	32a-X	.	.	.	.
.	12f-XL	12dd-L]	.	.	.
.	24gnJk	24ccJk	.	.	.
!!LO:LB:g=original
=121	=121	=121	=121	=121	=121
*^	*	*	*	*	*
16r	[2F-X	12ryy	12r	.	2r	.
16AALL	.	.	.	.	.	.
.	.	[24G	[24c	.	.	.
16EE-X	.	4.G_	12cL]	.	.	.
[16AAJJ	.	.	.	.	.	.
.	.	.	[24cJk	.	.	.
16AALL]	.	.	12cL]	.	.	.
16EE-	.	.	.	.	.	.
.	.	.	24cJk	.	.	.
16AA	.	.	12cL	.	.	.
[16EE-JJ	.	.	.	.	.	.
.	.	.	24cJk	.	.	.
=122	=122	=122	=122	=122	=122	=122
*	*^	*	*	*	*	*
16EE-\LL]	4F-_/	4re	4G_	24cLL	.	2r	.
.	.	.	.	24A	.	.	.
16AA	.	.	.	.	.	.	.
.	.	.	.	24c#XJJ	.	.	.
16EE-X	.	.	.	[8cn	.	.	.
16AAJJ	.	.	.	.	.	.	.
8EE-\	16F-/LL]	16re	16G]	16c]	.	.	.
.	[16E-XJJ	8A	8g	16cc	.	.	.
8rFF	8E-/]	.	.	16dd-XLL	.	.	.
.	.	16A-X	16g-X	16ddnJJ	.	.	.
*	*v	*v	*	*	*	*	*
*v	*v	*	*	*	*	*
=123	=123	=123	=123	=123	=123
24d#XLL	16.r	16dd#XLL	.	2r	.
24An	.	.	.	.	.
.	.	16ff#XJJ	.	.	.
24BBJJ	.	.	.	.	.
.	32cc#X	.	.	.	.
8r	12aL	4gg#X	.	.	.
.	24ccnJk	.	.	.	.
4C 4Fn 4e-X	16.r	.	.	.	.
.	32dd-X	.	.	.	.
.	12aL	16.gg-XLL	.	.	.
.	24ccJk	.	.	.	.
.	.	32ffnJJk	.	.	.
!!LO:LB:g=original
=124	=124	=124	=124	=124	=124
4D#X 4A 4en	16.r	[4een	.	2r	.
.	32cc#X	.	.	.	.
.	12aL	.	.	.	.
.	24ccnJk	.	.	.	.
4F#X 4B#X 4gn	16.r	8ee_	.	.	.
.	32bn	.	.	.	.
.	12gnL	12eeL]	.	.	.
.	24a#XJk	24dd#XJk	.	.	.
=125	=125	=125	=125	=125	=125
*^	*	*	*	*	*
16r	[2G	12ryy	12r	.	2r	.
16BB#XLL	.	.	.	.	.	.
.	.	[24A#X	[24d#X	.	.	.
16FF#X	.	4.A#_	12d#L]	.	.	.
[16BB#JJ	.	.	.	.	.	.
.	.	.	[24d#Jk	.	.	.
16BB#LL]	.	.	12d#L]	.	.	.
16FF#	.	.	.	.	.	.
.	.	.	24d#Jk	.	.	.
16BB#	.	.	12d#L	.	.	.
[16FF#JJ	.	.	.	.	.	.
.	.	.	24d#Jk	.	.	.
=126	=126	=126	=126	=126	=126	=126
*	*^	*	*	*	*	*
16FF#\LL]	4G_/	4re	4A#_	24d#XLL	.	2r	.
.	.	.	.	24B#X	.	.	.
16BB#X	.	.	.	.	.	.	.
.	.	.	.	24d##XJJ	.	.	.
16FF#X	.	.	.	[8d#X	.	.	.
16BB#JJ	.	.	.	.	.	.	.
8FF#\	16G/LL]	16re	16A#]	16d#]	.	.	.
.	[16F#XJJ	8B#X	8a#X	16dd#X	.	.	.
8rFF	8F#/]	.	.	16eeLL	.	.	.
.	.	16Bn	16an	16ee#XJJ	.	.	.
*	*	*	*v	*v	*	*	*
*	*v	*v	*	*	*	*
*v	*v	*	*	*	*
!!LO:LB:g=original
=127	=127	=127	=127	=127
24DnLL	8r	.	2r	.
24c	.	.	.	.
24f#XJJ	.	.	.	.
.	8qeen	.	.	.
8r	[8bb	.	.	.
24ccLL	12bbL]	.	.	.
24f#JJ	.	.	.	.
24r	24ff#XJk	.	.	.
8r	24eeLL	.	.	.
.	24b	.	.	.
.	24ccJJ	.	.	.
=128	=128	=128	=128	=128
*^	*^	*	*	*
*	*	*	*^	*	*	*
32BBKLL	4BB 4G-X	8ryy	4g-X	16.r	.	2r	.
[16.FFnJJ	.	.	.	.	.	.	.
.	.	.	.	[32d 32ee-X	.	.	.
8FF]	.	8d\]	.	12bL	.	.	.
.	.	.	.	24ddJk	.	.	.
32DKLL	4D 4A	8ryy	4f	16.r	.	.	.
[16.GG#XJJ	.	.	.	.	.	.	.
.	.	.	.	[32d 32cc#X	.	.	.
8GG#]	.	8d\]	.	12aL	.	.	.
.	.	.	.	24ccnJk	.	.	.
*v	*v	*	*	*	*	*	*
*	*	*v	*v	*	*	*
*	*v	*v	*	*	*
=129	=129	=129	=129	=129
24DLL	8r	.	2r	.
24c	.	.	.	.
24f#XJJ	.	.	.	.
.	8qeen	.	.	.
8r	[8bb	.	.	.
24ccLL	12bbL]	.	.	.
24f#JJ	.	.	.	.
24r	24ff#XJk	.	.	.
8r	24eeLL	.	.	.
.	24b	.	.	.
.	24ccJJ	.	.	.
!!LO:LB:g=original
=130	=130	=130	=130	=130
*^	*^	*	*	*
*	*	*	*^	*	*	*
32BBKLL	4BB 4G-X	8ryy	4g-X	16.r	.	2r	.
[16.FFnJJ	.	.	.	.	.	.	.
.	.	.	.	[32d 32ee-X	.	.	.
8FF]	.	8d\]	.	12bL	.	.	.
.	.	.	.	24ddJk	.	.	.
32DKLL	4D 4A	8ryy	4f	16.r	.	.	.
[16.GG#XJJ	.	.	.	.	.	.	.
.	.	.	.	[32d 32cc#X	.	.	.
8GG#]	.	8d\]	.	12aL	.	.	.
.	.	.	.	24ccnJk	.	.	.
=131	=131	=131	=131	=131	=131	=131	=131
32DKLL	4D 4B--	8ryy	4b--	16.r	.	2r	.
[16.AA-XJJ	.	.	.	.	.	.	.
.	.	.	.	[32f 32gg-X	.	.	.
8AA-]	.	8f\]	.	12ddL	.	.	.
.	.	.	.	24ffJk	.	.	.
32FKLL	4F 4c	8ryy	4a-X	16.r	.	.	.
[16.BBnJJ	.	.	.	.	.	.	.
.	.	.	.	[32f 32ee	.	.	.
8BB]	.	8f\]	.	12ccL	.	.	.
.	.	.	.	24ee-XJk	.	.	.
=132	=132	=132	=132	=132	=132	=132	=132
32E#KLL	4E#X 4c	8ryy	4cc	16.r	.	2r	.
[16.BBJJ	.	.	.	.	.	.	.
.	.	.	.	[32g#X 32aa	.	.	.
8BB]	.	8g#\]	.	12ee#XL	.	.	.
.	.	.	.	24gg#XJk	.	.	.
8ryy	4C##X 4G#X 4d#X	8ryy	12r	4g# 4dd#X 4ff##X	.	.	.
.	.	.	24b	.	.	.	.
8ryy	.	8ryy	12bL	.	.	.	.
.	.	.	24bJk	.	.	.	.
!!LO:LB:g=original
=133	=133	=133	=133	=133	=133	=133	=133
32E#KLL	4E#X 4c	8ryy	4cc	16.r	.	2r	.
[16.BBJJ	.	.	.	.	.	.	.
.	.	.	.	[32g#X 32aa	.	.	.
8BB]	.	8g#]	.	12ee#XL	.	.	.
.	.	.	.	24gg#XJk	.	.	.
8ryy	4C##X 4G#X 4d#X/	8ryy	12r	4g# 4dd#X 4ff##X	.	.	.
.	.	.	24b	.	.	.	.
8ryy	.	8ryy	12bL	.	.	.	.
.	.	.	24bJk	.	.	.	.
*	*	*	*v	*v	*	*	*
*	*	*v	*v	*	*	*
=134	=134	=134	=134	=134	=134
8ryy	8r	24bLL	.	2r	.
.	.	24g#X	.	.	.
.	.	24b#XJJ	.	.	.
4C##X 4G#X	8d#X	4.bn/	.	.	.
.	8enL	.	.	.	.
8C## 8Gn	8fnJ	.	.	.	.
*v	*v	*	*	*	*
=135	=135	=135	=135	=135
*	*^	*	*	*
8r	8ryy	16.r	.	2r	.
.	.	[32f 32ee-X/	.	.	.
8Dn 8G	8f]	12bL	.	.	.
.	.	24ddJk	.	.	.
8D-XL 8c-X	8ryy	16.r	.	.	.
.	.	[32f 32dd-X	.	.	.
8DnJ 8G	8f]	12aL	.	.	.
.	.	24ccnJk	.	.	.
=136	=136	=136	=136	=136	=136
8D-XL 8c-X	8ryy	16.r	.	2r	.
.	.	[32f 32ee-X/	.	.	.
8DnJ 8G	8f]	12bL	.	.	.
.	.	24ddnJk	.	.	.
8D-XL 8c-	8ryy	16.r	.	.	.
.	.	[32f 32dd-X	.	.	.
8DnJ 8G	8f]	12aL	.	.	.
.	.	24ccnJk	.	.	.
!!LO:LB:g=original
=137||	=137||	=137||	=137||	=137||	=137||
*^	*	*	*	*	*
8D-XL 8c-X	4f	16.r	16r	.	2r	.
.	.	.	16gg	.	.	.
.	.	32ee-X	.	.	.	.
8DnJ 8G	.	12bL	4aa-X	.	.	.
.	.	24ddnJk	.	.	.	.
8D-XL 8c-	4f	16.r	.	.	.	.
.	.	32ee-	.	.	.	.
8DnJ 8G	.	12bL	8gg	.	.	.
.	.	24ddJk	.	.	.	.
=138	=138	=138	=138	=138	=138	=138
8EnL 8d	4g#X	16.r	16gg#XLL	.	2r	.
.	.	.	16bbJJ	.	.	.
.	.	32ff#X	.	.	.	.
8E#XJ 8A#X	.	12cc##XL	4ccc#X	.	.	.
.	.	24ee#XJk	.	.	.	.
8EnL 8d	4g#	16.r	.	.	.	.
.	.	32ff#	.	.	.	.
8E#XJ 8A#	.	12cc##L	8bb	.	.	.
.	.	24ee#Jk	.	.	.	.
*	*	*v	*v	*	*	*
*v	*v	*	*	*	*
*clefG2	*	*	*	*
=139	=139	=139	=139	=139
16Gn 16fn 16b	24r	.	2r	.
.	24eeenLL	.	.	.
16r	.	.	.	.
.	24bbJJ	.	.	.
8r	24aanLL	.	.	.
.	24een	.	.	.
.	24ffnJJ	.	.	.
*^	*	*	*	*
12r	4B-X 4en 4cc-X	4dd 4ee 4aa-X	.	.	.
24cc-	.	.	.	.	.
12cc-L	.	.	.	.	.
24cc-Jk	.	.	.	.	.
*v	*v	*	*	*	*
*clefF4	*	*	*	*
!!LO:LB:g=original
=140	=140	=140	=140	=140
16GG 16F 16Bn	24r	.	2r	.
.	24eeLL	.	.	.
16r	.	.	.	.
.	24bJJ	.	.	.
8r	24aLL	.	.	.
.	24e	.	.	.
.	24fJJ	.	.	.
*^	*	*	*	*
4BB-X 4E 4c-X	12r	4d 4e 4a-X	.	.	.
.	24c-	.	.	.	.
.	12c-L	.	.	.	.
.	24c-Jk	.	.	.	.
=141	=141	=141	=141	=141	=141
4r	24c-XLL	2r	.	2r	.
.	24A-X	.	.	.	.
.	24cnJJ	.	.	.	.
.	[4.c-X	.	.	.	.
8E-XL 8G	.	.	.	.	.
8BB--J 8G-X	.	.	.	.	.
=142	=142	=142	=142	=142	=142
8D-XL 8F	2c-]	2r	.	2r	.
8BB--J 8G-X	.	.	.	.	.
8E-XL 8Gn	.	.	.	.	.
8C-XJ 8A-X	.	.	.	.	.
=143	=143	=143	=143	=143	=143
8F 8An	8BnL 8e-X	12r	.	2r	.
.	.	[24f	.	.	.
8r	8FJ 8d	12fL]	.	.	.
.	.	[24fJk	.	.	.
4r	8AL 8d-X	12fL]	.	.	.
.	.	24fJk	.	.	.
.	8E-XJ 8c	24fLL	.	.	.
.	.	24f	.	.	.
.	.	24fJJ	.	.	.
*v	*v	*	*	*	*
!!LO:LB:g=original
=144	=144	=144	=144	=144
*	*^	*	*	*
8GL 8B	24fLL	8r	.	2r	.
.	24d	.	.	.	.
.	24f#XJJ	.	.	.	.
8D-XJ 8B-X	[4.fn	24r	.	.	.
.	.	24dd-XLL	.	.	.
.	.	24dd-JJ	.	.	.
8FL 8A	.	24dd-LL	.	.	.
.	.	24dd-	.	.	.
.	.	24dd-JJ	.	.	.
8C-XJ 8A-X	.	24dd-LL	.	.	.
.	.	24dd-	.	.	.
.	.	24dd-JJ	.	.	.
=145	=145	=145	=145	=145	=145
8E-X 8G	8f]	24dd-XLL	.	2r	.
.	.	24b-X	.	.	.
.	.	24ddnJJ	.	.	.
*	*v	*v	*	*	*
4.AAn 4.F#X	4c#X 4e#X 4cc#X	.	.	.
.	8cn 8en 8ccn	.	.	.
=146	=146	=146	=146	=146
*	*^	*	*	*
32AAKLL 32F#X	16.ryy	16.B 16.d#X 16.b	.	2r	.
16E#XJJ 16A	.	.	.	.	.
32r	[32g	32ff-X	.	.	.
20AALL	8g_	12ccL	.	.	.
20E-X	.	.	.	.	.
.	.	[24ee-XJk	.	.	.
20B-X	.	.	.	.	.
.	16.gLL]	16.ee-LL]	.	.	.
20A	.	.	.	.	.
20e-XJJ	.	.	.	.	.
.	[32gJJk	32ff-JJk	.	.	.
8b-X	8g]	12ccL	.	.	.
.	.	24ee-Jk	.	.	.
*	*v	*v	*	*	*
=147	=147	=147	=147	=147
8AL 8d-X	12r	.	2r	.
.	24e-X	.	.	.
8E-XJ 8c	24e-LL	.	.	.
.	24e-	.	.	.
.	24e-JJ	.	.	.
8GL 8c-X	24e-LL	.	.	.
.	24e-	.	.	.
.	24e-JJ	.	.	.
8D-XJ 8B-X	24e-LL	.	.	.
.	24e-	.	.	.
.	24e-JJ	.	.	.
!!LO:LB:g=original
=148	=148	=148	=148	=148
*	*^	*	*	*
8FL 8A	24e-XLL	8r	.	2r	.
.	24c	.	.	.	.
.	24enJJ	.	.	.	.
8C-XJ 8A-X	[4.e-X	24r	.	.	.
.	.	24cc-XLL	.	.	.
.	.	24cc-JJ	.	.	.
8E-XL 8G	.	24cc-LL	.	.	.
.	.	24cc-	.	.	.
.	.	24cc-JJ	.	.	.
8BB--J 8G-X	.	24cc-LL	.	.	.
.	.	24cc-	.	.	.
.	.	24cc-JJ	.	.	.
=149	=149	=149	=149	=149	=149
8D-X 8F	8e-]	24cc-XLL	.	2r	.
.	.	24a-X	.	.	.
.	.	24ccnJJ	.	.	.
*	*v	*v	*	*	*
4.GG 4.En	4B 4d#X 4b	.	.	.
.	.	.	.	.
.	8B-X 8dn 8b-X	.	.	.
=150	=150	=150	=150	=150
*	*^	*	*	*
32GGKLL 32E	16.ryy	16.A 16.c#X 16.a	.	2r	.
16D#XJJ 16G	.	.	.	.	.
32r	[32f	32ee--	.	.	.
20GGLL	8f_	12b-XL	.	.	.
20D-X	.	.	.	.	.
.	.	[24dd-XJk	.	.	.
20A-X	.	.	.	.	.
.	16.fLL]	16.dd-LL]	.	.	.
20G	.	.	.	.	.
20d-XJJ	.	.	.	.	.
.	[32fJJk	32ee--JJk	.	.	.
8a-X	8f]	12b-L	.	.	.
.	.	24dd-Jk	.	.	.
*	*v	*v	*	*	*
=151	=151	=151	=151	=151
8r	8r	.	2r	.
4GG 4E-X	8B-X 8dn 8b-X	.	.	.
.	8AnL 8c#X 8an	.	.	.
8FF#X 8Dn	8A-XJ 8cn 8a-X	.	.	.
!!LO:LB:g=original
=152	=152	=152	=152	=152
*	*^	*	*	*
32FFnKLL 32D	16.ryy	16.G 16.Bn 16.g	.	2r	.
16C#XJJ 16F	.	.	.	.	.
32r	[32d#X	32ccn	.	.	.
20EE#XLL	8d#_	12g#XL	.	.	.
20BB	.	.	.	.	.
.	.	[24bJk	.	.	.
20F#X	.	.	.	.	.
.	16.d#LL]	16.bLL]	.	.	.
20E#X	.	.	.	.	.
20BJJ	.	.	.	.	.
.	[32d#JJk	32ccJJk	.	.	.
8f#X	8d#]	12g#L	.	.	.
.	.	24bJk	.	.	.
=153	=153	=153	=153	=153	=153
32FnKLL 32dn	4r	16.r	.	2r	.
[16.c#XJJ [16.fn	.	.	.	.	.
.	.	32b	.	.	.
16c#] 16f]	.	12gnL	.	.	.
32r	.	.	.	.	.
.	.	[24b-XJk	.	.	.
32EE	.	.	.	.	.
32AA#XLLL	16.r	16b-KL]	.	.	.
32F	.	.	.	.	.
32E	.	32r	.	.	.
32A#XJJJ	[32c#X	32ddJkk	.	.	.
8f	8c#]	12a#XL	.	.	.
.	.	24cc#XJk	.	.	.
=154	=154	=154	=154	=154	=154
32FKLL 32d	16.ryy	16.r	.	2r	.
[16.c#XJJ [16.f	.	.	.	.	.
.	[32g [32bn	32ff	.	.	.
16c#] 16f]	8g_ 8b_	12cc#XL	.	.	.
32r	.	.	.	.	.
.	.	[24eeJk	.	.	.
32CC#X	.	.	.	.	.
32GGLLL	16.gLL] 16.b]	16eeKL]	.	.	.
32D	.	.	.	.	.
32C#X	.	32r	.	.	.
32GJJJ	[32gJJk [32b	32aa-XJkk	.	.	.
8d	8g] 8b]	12eeL	.	.	.
.	.	24ggJk	.	.	.
*	*v	*v	*	*	*
!!LO:LB:g=original
=155||	=155||	=155||	=155||	=155||
*^	*	*	*	*
4r	32FKLL 32d	16ggLL 16bb	.	2r	.
.	[16.c#XJJ [16.f	.	.	.	.
.	.	16cc#X 16bb-X	.	.	.
.	4.c#_ 4.f_	16ff 16aan	.	.	.
.	.	16bnJJ 16aa-X	.	.	.
20FFFLL	.	16ggLL 16bbn	.	.	.
20BBBn	.	.	.	.	.
.	.	16cc# 16bb-X	.	.	.
20GG	.	.	.	.	.
.	.	16ff 16aan	.	.	.
20FF	.	.	.	.	.
.	.	16bnJJ 16aa-X	.	.	.
20BBJJ	.	.	.	.	.
=156	=156	=156	=156	=156	=156
20GLL	2c#] 2f]	16ee-XLL 16gg	.	2r	.
20BB	.	.	.	.	.
.	.	16an 16ff#X	.	.	.
20FF	.	.	.	.	.
.	.	16cc#X 16ffn	.	.	.
20GG	.	.	.	.	.
.	.	16gJJ 16een	.	.	.
20BBBJJ	.	.	.	.	.
8FFF	.	16bLL 16ee-X	.	.	.
.	.	16f 16dd	.	.	.
8r	.	16a 16dd-X	.	.	.
.	.	16e-XJJ 16ccn	.	.	.
=157	=157	=157	=157	=157	=157
4r	32FFKLL 32Dn	16gLL 16b	.	2r	.
.	[16.C#XJJ [16.F	.	.	.	.
.	.	16c#X 16b-X	.	.	.
.	4.C#_ 4.F_	16f 16an	.	.	.
.	.	16BnJJ 16a-X	.	.	.
20FFFLL	.	16gLL 16bn	.	.	.
20BBBn	.	.	.	.	.
.	.	16c# 16b-X	.	.	.
20GG	.	.	.	.	.
.	.	16f 16an	.	.	.
20FF	.	.	.	.	.
.	.	16BnJJ 16a-X	.	.	.
20BBJJ	.	.	.	.	.
=158	=158	=158	=158	=158	=158
20GLL	2C#] 2F]	16e-XLL 16g	.	2r	.
20BB	.	.	.	.	.
.	.	16An 16f#X	.	.	.
20FF	.	.	.	.	.
.	.	16c#X 16fn	.	.	.
20GG	.	.	.	.	.
.	.	16GJJ 16en	.	.	.
20BBBJJ	.	.	.	.	.
*	*	*clefF4	*	*	*
8FFF	.	16BLL 16e-X	.	.	.
.	.	16F 16d	.	.	.
8r	.	16A 16d-X	.	.	.
.	.	16E-XJJ 16cn	.	.	.
*v	*v	*	*	*	*
!!LO:LB:g=original
=159	=159	=159	=159	=159
2r	16GLL 16B	.	4r	.
.	16C#X 16B-X	.	.	.
.	16F 16A	.	.	.
.	16BBnJJ 16A-X	.	.	.
.	16GLL 16Bn	.	24r	.
.	.	.	24c#XLL	.
.	16C# 16B-X	.	.	.
.	.	.	24c#JJ	.
.	16F 16An	.	24c#LL	.
.	.	.	24c#	.
.	16BBnJJ 16A-X	.	.	.
.	.	.	24c#JJ	.
=160	=160	=160	=160	=160
2r	16GLL 16Bn	.	16c#XLL	.
.	16C#X 16B-X	.	32B-XL	.
.	.	.	32dJJJ	.
.	16F 16An	.	4.c#	.
.	16BBnJJ 16A-X	.	.	.
.	16GLL 16Bn	.	.	.
.	16C# 16B-X	.	.	.
.	16F 16An	.	.	.
.	16BBnJJ 16A-X	.	.	.
=161	=161	=161	=161	=161
8FFF 8FF	16GLL 16Bn	.	4r	.
.	16C#X 16B-X	.	.	.
8r	16F 16An	.	.	.
.	16BBnJJ 16A-X	.	.	.
4r	16GLL 16Bn	.	24r	.
.	.	.	24c#XLL	.
.	16C# 16B-X	.	.	.
.	.	.	24c#JJ	.
.	16F 16An	.	24c#LL	.
.	.	.	24c#	.
.	16BBnJJ 16A-X	.	.	.
.	.	.	24c#JJ	.
=162	=162	=162	=162	=162
2r	16GLL 16Bn	.	16c#XLL	.
.	16C#X 16B-X	.	32B-XL	.
.	.	.	32dJJJ	.
.	16F 16An	.	4.c#	.
.	16BBnJJ 16A-X	.	.	.
.	16GLL 16Bn	.	.	.
.	16C# 16B-X	.	.	.
.	16F 16An	.	.	.
.	16BBnJJ 16A-X	.	.	.
*	*clefG2	*	*	*
!!LO:LB:g=original
=163	=163	=163	=163	=163
8E-XL 8Bn	16fLL 16an	.	2r	.
.	16B 16a-X	.	.	.
8FFFJ 8FF	16e-X 16g	.	.	.
.	16AnJJ 16g-X	.	.	.
16BLL 16e-X	[4f [4an	.	.	.
16F 16d	.	.	.	.
16A 16d-X	.	.	.	.
16E-JJ 16c	.	.	.	.
=164	=164	=164	=164	=164
16B 16e-X	16fLL] 16a]	.	2r	.
16r	16B 16a-X	.	.	.
8r	16e-X 16g	.	.	.
.	16AnJJ 16g-X	.	.	.
16BLL 16e-	4r	.	.	.
16F 16d	.	.	.	.
16A 16d-X	.	.	.	.
16E-XJJ 16c	.	.	.	.
=165	=165	=165	=165	=165
16GnLL 16B	16.r	.	2r	.
16D-XJJ 16B-X	.	.	.	.
.	32a	.	.	.
8FF	12fL	.	.	.
.	24a-XJk	.	.	.
32D-KLL 32B-	16.r	.	.	.
[16.AnJJ [16.d-X	.	.	.	.
.	32g	.	.	.
8A] 8d-]	12e-XL	.	.	.
.	24g-XJk	.	.	.
=166	=166	=166	=166	=166
*^	*	*	*	*
2FFF	12FFL	32D-XKLL 32B-X	.	2r	.
.	.	[16.AnJJ [16.d-X	.	.	.
.	24FFJk	.	.	.	.
.	24FFLL	8A] 8d-]	.	.	.
.	24FF	.	.	.	.
.	24FFJJ	.	.	.	.
.	12FFL	32D-KLL 32B-	.	.	.
.	.	[16.AJJ [16.d-	.	.	.
.	24FFJk	.	.	.	.
.	24FFLL	8A] 8d-]	.	.	.
.	24FF	.	.	.	.
.	24FFJJ	.	.	.	.
*v	*v	*	*	*	*
!!LO:LB:g=original
=167	=167	=167	=167	=167
8D-XL 8A	16e-XLL 16g	.	2r	.
.	16A 16g-X	.	.	.
8FFFJ 8FF	16d-X 16f	.	.	.
.	16GnJJ 16f-X	.	.	.
16ALL 16d-X	[4e- [4gn	.	.	.
16E-X 16c	.	.	.	.
16G 16c-X	.	.	.	.
16D-JJ 16B-X	.	.	.	.
=168	=168	=168	=168	=168
16A 16d-X	16e-LL] 16g]	.	2r	.
16r	16A 16g-X	.	.	.
8r	16d-X 16fn	.	.	.
.	16GnJJ 16f-X	.	.	.
16ALL 16d-	4r	.	.	.
16E-X 16c	.	.	.	.
16G 16c-X	.	.	.	.
16D-XJJ 16B-X	.	.	.	.
=169	=169	=169	=169	=169
16FnLL 16A	16.r	.	2r	.
16C-XJJ 16A-X	.	.	.	.
.	32g	.	.	.
8FF	12e-XL	.	.	.
.	24g-XJk	.	.	.
32C-KLL 32A-	16.r	.	.	.
[16.GnJJ [16.c-X	.	.	.	.
.	32f	.	.	.
8G] 8c-]	12d-XL	.	.	.
.	24f-XJk	.	.	.
*	*clefF4	*	*	*
=170	=170	=170	=170	=170
*^	*	*	*	*
2FFFn	12FFnL	32C-XKLL 32A-X	.	2r	.
.	.	[16.C-JJ [16.G [16.c-X	.	.	.
.	24FFJk	.	.	.	.
.	24FFLL	8C-] 8G] 8c-]	.	.	.
.	24FF	.	.	.	.
.	24FFJJ	.	.	.	.
.	12FFL	32C-KLL 32A-	.	.	.
.	.	[16.C-JJ [16.G [16.c-	.	.	.
.	24FFJk	.	.	.	.
.	24FFLL	8C-] 8G] 8c-]	.	.	.
.	24FF	.	.	.	.
.	24FFJJ	.	.	.	.
*v	*v	*	*	*	*
*	*clefG2	*	*	*
!!LO:LB:g=original
=171	=171	=171	=171	=171
8BBL 8G	16c#XLL 16f	.	2r	.
.	16G 16e	.	.	.
8FFFJ 8FF	16B 16e-X	.	.	.
.	16FJJ 16d	.	.	.
16GLL 16B	4c# 4f	.	.	.
16C#X 16B-X	.	.	.	.
16F 16An	.	.	.	.
16BBnJJ 16A-X	.	.	.	.
=172	=172	=172	=172	=172
4G 4Bn	16.r	.	2r	.
.	32f	.	.	.
.	12c#XL	.	.	.
.	24enJk	.	.	.
32FFKLL 32D	16.r	.	.	.
[16.C#XJJ [16.F	.	.	.	.
.	32B	.	.	.
8C#] 8F/]	12GL	.	.	.
.	24B-XJk	.	.	.
=173	=173	=173	=173	=173
8BBnL 8G	16c#XLL 16f	.	2r	.
.	16G 16e	.	.	.
8FFFJ 8FF	16Bn 16e-X	.	.	.
.	16FJJ 16d	.	.	.
16GLL 16B	4c# 4f	.	.	.
16C#X 16B-X	.	.	.	.
16F 16A	.	.	.	.
16BBnJJ 16A-X	.	.	.	.
=174	=174	=174	=174	=174
4G 4Bn	16.r	.	2r	.
.	32f	.	.	.
.	12c#XL	.	.	.
.	24enJk	.	.	.
32FFKLL 32D	16.r	.	.	.
[16.C#XJJ [16.F	.	.	.	.
.	32B	.	.	.
8C#] 8F/]	12GL	.	.	.
.	24B-XJk	.	.	.
*	*clefF4	*	*	*
!!LO:LB:g=original
=175	=175	=175	=175	=175
32FFLLL 32D	16GLL 16Bn	.	2r	.
32C#XJJJ 32F	.	.	.	.
16r	16C#X 16B-X	.	.	.
8r	16F 16A	.	.	.
.	16BBnJJ 16A-X	.	.	.
4r	16GLL 16Bn	.	.	.
.	16C# 16B-X	.	.	.
.	16F 16An	.	.	.
.	16BBnJJ 16A-X	.	.	.
=176	=176	=176	=176	=176
8FFF 8BBB 8GG	16GLL 16Bn	.	2r	.
.	16C#X 16B-X	.	.	.
8r	16F 16An	.	.	.
.	16BBnJJ 16A-X	.	.	.
4r	16GLL 16Bn	.	.	.
.	16C# 16B-X	.	.	.
.	16F 16An	.	.	.
.	16BBnJJ 16A-X	.	.	.
=177	=177	=177	=177	=177
32FFLLL 32D	16GLL 16Bn	.	2r	.
32C#XJJJ 32F	.	.	.	.
16r	16C#X 16B-X	.	.	.
8r	16F 16An	.	.	.
.	16BBnJJ 16A-X	.	.	.
4r	16GLL 16Bn	.	.	.
.	16C# 16B-X	.	.	.
.	16F 16An	.	.	.
.	16BBnJJ 16A-X	.	.	.
=178	=178	=178	=178	=178
8FFF 8BBB 8GG	16GLL 16Bn	.	2r	.
.	16C#X 16B-X	.	.	.
8r	16F 16An	.	.	.
.	16BBnJJ 16A-X	.	.	.
4r	16GLL 16Bn	.	.	.
.	16C# 16B-X	.	.	.
.	16F 16An	.	.	.
.	16BBnJJ 16A-X	.	.	.
*	*clefG2	*	*	*
!!LO:LB:g=original
=179||	=179||	=179||	=179||	=179||
*M4/4	*M4/4	*	*M4/4	*
*^	*^	*	*	*
2r	16FFKL 16D	2r	8r	.	1r	.
.	[8.C#XJ [8.F	.	.	.	.	.
.	.	.	8g	.	.	.
.	2.C#] 2.F]	.	2a-X	.	.	.
2FFF 2BBB 2GG	.	12r	.	.	.	.
.	.	12BL	.	.	.	.
.	.	12dJ	.	.	.	.
.	.	12BL	4g	.	.	.
.	.	12d	.	.	.	.
.	.	12BJ	.	.	.	.
=180	=180	=180	=180	=180	=180	=180
2r	16FFKL 16D	2r	8a-XL	.	1r	.
.	[8.C#XJ [8.F	.	.	.	.	.
.	.	.	8bJ	.	.	.
.	2.C#] 2.F]	.	2cc#X	.	.	.
2FFF 2BBB 2GG	.	12r	.	.	.	.
.	.	12fL	.	.	.	.
.	.	12a-J	.	.	.	.
.	.	12fL	4b	.	.	.
.	.	12a-	.	.	.	.
.	.	12fJ	.	.	.	.
=181	=181	=181	=181	=181	=181	=181
2r	16FFKL 16D	12r	4ee	.	1r	.
.	[8.C#XJ [8.F	.	.	.	.	.
.	.	12fL	.	.	.	.
.	.	12a-XJ	.	.	.	.
.	2.C#] 2.F]	12r	4b	.	.	.
.	.	12fL	.	.	.	.
.	.	12a-J	.	.	.	.
2FFF 2BBB 2GG	.	12r	4ee	.	.	.
.	.	12fL	.	.	.	.
.	.	12a-J	.	.	.	.
.	.	12r	4b	.	.	.
.	.	12fL	.	.	.	.
.	.	12a-J	.	.	.	.
=182	=182	=182	=182	=182	=182	=182
2r	16FFKL 16D	12r	4ee	.	1r	.
.	[8.C#XJ [8.F	.	.	.	.	.
.	.	12fL	.	.	.	.
.	.	12a-XJ	.	.	.	.
.	2.C#] 2.F]	12r	4b	.	.	.
.	.	12fL	.	.	.	.
.	.	12a-J	.	.	.	.
2FFF 2BBB 2GG	.	12r	4ee	.	.	.
.	.	12fL	.	.	.	.
.	.	12a-J	.	.	.	.
.	.	12r	4b	.	.	.
.	.	12fL	.	.	.	.
.	.	12a-J	.	.	.	.
*v	*v	*	*	*	*	*
*	*v	*v	*	*	*
!!LO:LB:g=original
=183	=183	=183	=183	=183
8FF 8BB-X 8A-X	4r	.	6r	.
8r	.	.	.	.
.	.	.	16qdLL	.
.	.	.	16qfJJ	.
.	.	.	6b-X	.
4r	8a-XL	.	.	.
.	.	.	[6cc-X	.
.	24gL	.	.	.
.	24e	.	.	.
.	24dJJ	.	.	.
2r	[4c-X	.	3cc-]	.
.	8c-L]	.	.	.
.	.	.	6b-X	.
.	24dnL	.	.	.
.	24e	.	.	.
.	24gJJ	.	.	.
=184	=184	=184	=184	=184
.	.	.	8qf	.
8AA-X 8D-X 8c-X	8a-X	.	12cc-XL	.
.	.	.	12ee--	.
8r	8r	.	.	.
.	.	.	[12ff-XJ	.
4r	8a-L	.	4ff-_	.
.	24gL	.	.	.
.	24f-X	.	.	.
.	24e--JJ	.	.	.
2r	[4c-X	.	3ff-]	.
.	8c-L]	.	.	.
.	.	.	6ee--	.
.	24e--L	.	.	.
.	24f-	.	.	.
.	24gJJ	.	.	.
=185	=185	=185	=185	=185
*	*	*	*^	*
8BB 8En 8dn	8g#X	.	2b	4ggn	.
8r	8r	.	.	.	.
4r	8g#L	.	.	4dd	.
.	24gnL	.	.	.	.
.	24en	.	.	.	.
.	24dJJ	.	.	.	.
2r	[4B	.	2g#X 2b	4ggn	.
.	8BL]	.	.	4dd	.
.	24dL	.	.	.	.
.	24e	.	.	.	.
.	24gnJJ	.	.	.	.
!!LO:LB:g=original
=186	=186	=186	=186	=186	=186
8D 8G 8f	8a-X	.	2b	4gg	.
8r	8r	.	.	.	.
4r	8a-L	.	.	4dd	.
.	24gL	.	.	.	.
.	24e	.	.	.	.
.	24dJJ	.	.	.	.
2r	[4Bn	.	2a-X 2b	4gg	.
.	8BL]	.	.	4dd	.
.	24dL	.	.	.	.
.	24e	.	.	.	.
.	24gJJ	.	.	.	.
*	*	*	*v	*v	*
=187	=187	=187	=187	=187
*^	*^	*	*	*
2r	16FKL 16d	2r	8r	.	1r	.
.	[8.c#XJ [8.f	.	.	.	.	.
.	.	.	8g 8gg	.	.	.
.	2.c#_ 2.f_	.	[2.a-X [2.aa-X	.	.	.
10FFFL	.	8gL	.	.	.	.
10BBB	.	.	.	.	.	.
.	.	8c#X	.	.	.	.
10GG	.	.	.	.	.	.
.	.	8f	.	.	.	.
10FF	.	.	.	.	.	.
.	.	8BJ	.	.	.	.
10BBJ	.	.	.	.	.	.
=188	=188	=188	=188	=188	=188	=188
10GL	1c#] 1f]	8gL	2.a-] 2.aa-]	.	1r	.
10BB	.	.	.	.	.	.
.	.	8c#X	.	.	.	.
10FF	.	.	.	.	.	.
.	.	8f	.	.	.	.
10GG	.	.	.	.	.	.
.	.	8BJ	.	.	.	.
10BBBJ	.	.	.	.	.	.
10FFFL	.	8gL	.	.	.	.
10BBB	.	.	.	.	.	.
.	.	8c#J	.	.	.	.
10GG	.	.	.	.	.	.
.	.	4f	4g 4gg	.	.	.
10FF	.	.	.	.	.	.
10BBJ	.	.	.	.	.	.
!!LO:LB:g=original
=189	=189	=189	=189	=189	=189	=189
2r	16FKL 16d	2r	12a-XL 12aa-X	.	1r	.
.	[8.c#XJ [8.f	.	.	.	.	.
.	.	.	12b 12bb	.	.	.
.	.	.	[12cc#XJ [12ccc#X	.	.	.
.	2.c#_ 2.f_	.	2.cc#_ 2.ccc#_	.	.	.
10FFFL	.	8gL 8b	.	.	.	.
10BBBn	.	.	.	.	.	.
.	.	8c#X 8b-X	.	.	.	.
10GG	.	.	.	.	.	.
.	.	8f 8an	.	.	.	.
10FF	.	.	.	.	.	.
.	.	8BnJ 8a-X	.	.	.	.
10BBJ	.	.	.	.	.	.
=190	=190	=190	=190	=190	=190	=190
10GL	1c#] 1f]	8gL 8bn	2.cc#] 2.ccc#]	.	1r	.
10BBn	.	.	.	.	.	.
.	.	8c#X 8b-X	.	.	.	.
10FF	.	.	.	.	.	.
.	.	8f 8an	.	.	.	.
10GG	.	.	.	.	.	.
.	.	8BnJ 8a-X	.	.	.	.
10BBBJ	.	.	.	.	.	.
10FFFL	.	8gL 8bn	.	.	.	.
10BBBn	.	.	.	.	.	.
.	.	8c# 8b-X	.	.	.	.
10GG	.	.	.	.	.	.
.	.	8cc#X 8ff	4bn 4bbn	.	.	.
10FF	.	.	.	.	.	.
.	.	8gJ 8ee	.	.	.	.
10BBJ	.	.	.	.	.	.
=191	=191	=191	=191	=191	=191	=191
2r	16FKL 16d	8ggL 8bb	4eee	.	1r	.
.	[8.c#XJ [8.f	.	.	.	.	.
.	.	8cc#X 8bb-X	.	.	.	.
.	2.c#_ 2.f_	8ff 8aan	4bbn	.	.	.
.	.	8bJ 8aa-X	.	.	.	.
10FFFL	.	8ggL 8bb	4eee	.	.	.
10BBBn	.	.	.	.	.	.
.	.	8cc# 8bb-X	.	.	.	.
10GG	.	.	.	.	.	.
.	.	8ff 8aan	4bbn	.	.	.
10FF	.	.	.	.	.	.
.	.	8bJ 8aa-X	.	.	.	.
10BBJ	.	.	.	.	.	.
!!LO:LB:g=original
=192	=192	=192	=192	=192	=192	=192
10GL	1c#] 1f]	8ggL 8bb	4eee	.	1r	.
10BBn	.	.	.	.	.	.
.	.	8cc#X 8bb-X	.	.	.	.
10FF	.	.	.	.	.	.
.	.	8ff 8aan	4bbn	.	.	.
10GG	.	.	.	.	.	.
.	.	8bJ 8aa-X	.	.	.	.
10BBBJ	.	.	.	.	.	.
10FFFL	.	8ee-XL 8gg	2r	.	.	.
10BBB	.	.	.	.	.	.
.	.	8an 8ff#X	.	.	.	.
10GG	.	.	.	.	.	.
.	.	8cc# 8ffn	.	.	.	.
10FF	.	.	.	.	.	.
.	.	8gJ 8een	.	.	.	.
10BBJ	.	.	.	.	.	.
=193||	=193||	=193||	=193||	=193||	=193||	=193||
12G-L	1G-X	8r	1d 1b 1ee-X	.	1r	.
12BB	.	.	.	.	.	.
.	.	8f	.	.	.	.
12FFJ	.	.	.	.	.	.
12BBL	.	2g-X	.	.	.	.
12GG-X	.	.	.	.	.	.
12BBBJ	.	.	.	.	.	.
12FFFL	.	.	.	.	.	.
12BBB	.	.	.	.	.	.
12GG-J	.	.	.	.	.	.
12BBL	.	4f	.	.	.	.
12FF	.	.	.	.	.	.
12BBJ	.	.	.	.	.	.
=194	=194	=194	=194	=194	=194	=194
12G-L	1G-X	8g-XL	1d 1b 1ee-X	.	1r	.
12BB	.	.	.	.	.	.
.	.	8aJ	.	.	.	.
12FFJ	.	.	.	.	.	.
12BBL	.	2b	.	.	.	.
12GG-X	.	.	.	.	.	.
12BBBJ	.	.	.	.	.	.
12FFFL	.	.	.	.	.	.
12BBB	.	.	.	.	.	.
12GG-J	.	.	.	.	.	.
12BBL	.	4a	.	.	.	.
12FF	.	.	.	.	.	.
12BBJ	.	.	.	.	.	.
!!LO:LB:g=original
=195	=195	=195	=195	=195	=195	=195
2r	1A	4dd	2f 2gg-X	.	1r	.
.	.	4a	.	.	.	.
12FFFL	.	4dd	2f 2gg-	.	.	.
12BBB	.	.	.	.	.	.
12GG-XJ	.	.	.	.	.	.
12BBL	.	4a	.	.	.	.
12FF	.	.	.	.	.	.
12BBJ	.	.	.	.	.	.
*	*	*v	*v	*	*	*
=196	=196	=196	=196	=196	=196
2r	1A	6r	.	1r	.
.	.	6d 6g-X	.	.	.
.	.	6d 6g-	.	.	.
12FFFL	.	6d 6g-	.	.	.
12BBB	.	.	.	.	.
12GG-XJ	.	6d 6g-	.	.	.
12BBL	.	.	.	.	.
12FF	.	6d 6g-	.	.	.
12BBJ	.	.	.	.	.
=197	=197	=197	=197	=197	=197
*	*	*^	*	*	*
12G-L	1G-X	8r	1d 1b 1ee-X	.	1r	.
12BB	.	.	.	.	.	.
.	.	8f	.	.	.	.
12FFJ	.	.	.	.	.	.
12BBL	.	2g-X	.	.	.	.
12GG-X	.	.	.	.	.	.
12BBBJ	.	.	.	.	.	.
12FFFL	.	.	.	.	.	.
12BBB	.	.	.	.	.	.
12GG-J	.	.	.	.	.	.
12BBL	.	4f	.	.	.	.
12FF	.	.	.	.	.	.
12BBJ	.	.	.	.	.	.
!!LO:LB:g=original
=198	=198	=198	=198	=198	=198	=198
12G-L	1G-X	8g-XL	1d 1b 1ee-X	.	1r	.
12BB	.	.	.	.	.	.
.	.	8aJ	.	.	.	.
12FFJ	.	.	.	.	.	.
12BBL	.	2b	.	.	.	.
12GG-X	.	.	.	.	.	.
12BBBJ	.	.	.	.	.	.
12FFFL	.	.	.	.	.	.
12BBB	.	.	.	.	.	.
12GG-J	.	.	.	.	.	.
12BBL	.	4a	.	.	.	.
12FF	.	.	.	.	.	.
12BBJ	.	.	.	.	.	.
=199	=199	=199	=199	=199	=199	=199
2r	1A	4dd	2f 2gg-X	.	1r	.
.	.	4a	.	.	.	.
*	*	*v	*v	*	*	*
12FFFL	.	6f 6a 6dd 6gg-	.	.	.
12BBB	.	.	.	.	.
12GG-XJ	.	6f 6a 6dd 6gg-	.	.	.
12BBL	.	.	.	.	.
12FF	.	6f 6a 6dd 6gg-	.	.	.
12BBJ	.	.	.	.	.
=200	=200	=200	=200	=200	=200
16r	2c	6g#X 6cc 6ee#X 6aa	.	1r	.
16EEE#XLL	.	.	.	.	.
16BBB	.	.	.	.	.
.	.	6g# 6cc 6ee# 6aa	.	.	.
16FF#XJJ	.	.	.	.	.
16BBLL	.	.	.	.	.
16EE#X	.	.	.	.	.
.	.	6g# 6cc 6ee# 6aa	.	.	.
16BB	.	.	.	.	.
16F#XJJ	.	.	.	.	.
16r	2e-X	6b 6ee-X 6aa-X 6ccc	.	.	.
16FFFnLL	.	.	.	.	.
16BBB	.	.	.	.	.
.	.	6b 6ee- 6aa- 6ccc	.	.	.
16GG-XJJ	.	.	.	.	.
16BBLL	.	.	.	.	.
16FF#	.	.	.	.	.
.	.	6b 6ee- 6aa- 6ccc	.	.	.
16BB	.	.	.	.	.
16G-XJJ	.	.	.	.	.
!!LO:LB:g=original
=201	=201	=201	=201	=201	=201
4FFF 4BBB 4GG-X	4rA	16r	.	1r	.
.	.	16D<LL	.	.	.
.	.	16G-X<	.	.	.
.	.	16B<JJ 16e-X<	.	.	.
4r	8.r	20dLL	.	.	.
.	.	20g-X	.	.	.
.	.	20b 20ee-X	.	.	.
.	.	20dd	.	.	.
.	16e-X/	.	.	.	.
.	.	20gg-XJJ	.	.	.
4r	4B/	12bbL 12eee-X	.	.	.
.	.	12gg-	.	.	.
.	.	12ddJ	.	.	.
4r	4d/	12bL 12dd	.	.	.
.	.	12g-	.	.	.
.	.	12dJ	.	.	.
=202	=202	=202	=202	=202	=202
4GGG#X 4DD 4AA	4rA	16r	.	1r	.
.	.	16D<LL	.	.	.
.	.	16F<	.	.	.
.	.	16AJJ 16c#X	.	.	.
4r	8.r	20d\LL	.	.	.
.	.	20f	.	.	.
.	.	20a 20cc#X	.	.	.
.	.	20dd	.	.	.
.	16c#X/	.	.	.	.
.	.	20ffJJ	.	.	.
4r	4A/	12aaL 12ccc#X	.	.	.
.	.	12ff	.	.	.
.	.	12ddJ	.	.	.
4r	4cn/	12aL 12ccn	.	.	.
.	.	12f	.	.	.
.	.	12dJ	.	.	.
!!LO:LB:g=original
=203	=203	=203	=203	=203	=203
4FFF 4BBB 4GG-X	4rA	16r	.	1r	.
.	.	16D<LL	.	.	.
.	.	16G-X<	.	.	.
.	.	16B<JJ 16e-X<	.	.	.
4r	8.r	20dLL	.	.	.
.	.	20g-X	.	.	.
.	.	20b 20ee-X	.	.	.
.	.	20dd	.	.	.
.	16e-X/	.	.	.	.
.	.	20gg-XJJ	.	.	.
4r	4B/	12bbL 12eee-X	.	.	.
.	.	12gg-	.	.	.
.	.	12ddJ	.	.	.
4r	4d/	12bL 12dd	.	.	.
.	.	12g-	.	.	.
.	.	12dJ	.	.	.
=204	=204	=204	=204	=204	=204
4GGG#X 4DD 4AA	4rA	16r	.	1r	.
.	.	16D<LL	.	.	.
.	.	16F<	.	.	.
.	.	16AJJ 16c#X	.	.	.
4r	8.r	20d\LL	.	.	.
.	.	20f	.	.	.
.	.	20a 20cc#X	.	.	.
.	.	20dd	.	.	.
.	16c#X/	.	.	.	.
.	.	20ffJJ	.	.	.
4r	4A/	12aaL 12ccc#X	.	.	.
.	.	12ff	.	.	.
.	.	12ddJ	.	.	.
4r	4cn/	12aL 12ccn	.	.	.
.	.	12f	.	.	.
.	.	12dJ	.	.	.
*v	*v	*	*	*	*
=205||	=205||	=205||	=205||	=205||
*M4/8	*M4/8	*	*M4/8	*
*	*^	*	*	*
*	*	*^	*	*	*
32BBLLL 32G-X	8ryy	4g-X	16.r	.	2r	.
32FFJJJ	.	.	.	.	.	.
16r	.	.	.	.	.	.
.	.	.	[32d 32ee-X	.	.	.
32BBBLLL 32GG-X	8d\]	.	12bL	.	.	.
32FFFJJJ	.	.	.	.	.	.
16r	.	.	.	.	.	.
.	.	.	24ddJk	.	.	.
32DLLL 32A/	8ryy	4f	16.r	.	.	.
32GG#XJJJ	.	.	.	.	.	.
16r	.	.	.	.	.	.
.	.	.	[32d 32cc#X	.	.	.
32DDLLL 32AA	8d\]	.	12aL	.	.	.
32GGG#XJJJ	.	.	.	.	.	.
16r	.	.	.	.	.	.
.	.	.	24ccnJk	.	.	.
*	*clefF4	*	*	*	*	*
!!LO:LB:g=original
=206	=206	=206	=206	=206	=206	=206
32BBBLLL 32GG-X	8ryy	4G-X	16.r	.	2r	.
32FFFJJJ	.	.	.	.	.	.
16r	.	.	.	.	.	.
.	.	.	[32D 32e-X	.	.	.
8r	8D\]	.	12BL	.	.	.
.	.	.	24dJk	.	.	.
32DDLLL 32AA	8ryy	4F	16.r	.	.	.
32GGG#XJJJ	.	.	.	.	.	.
16r	.	.	.	.	.	.
.	.	.	[32D 32c#X	.	.	.
8r	8D\]	.	12AL	.	.	.
.	.	.	24cnJk	.	.	.
*	*	*v	*v	*	*	*
=207	=207	=207	=207	=207	=207
32BBBLLL	4GG-X	16.r	.	2r	.
32FFFJJJ	.	.	.	.	.
16r	.	.	.	.	.
.	.	32E-X	.	.	.
8r	.	12BBL	.	.	.
.	.	24DJk	.	.	.
32DDLLL	4FF	16.r	.	.	.
32GGG#XJJJ	.	.	.	.	.
16r	.	.	.	.	.
.	.	32C#X	.	.	.
8r	.	12AAL	.	.	.
.	.	24CnJk	.	.	.
*	*v	*v	*	*	*
=208	=208	=208	=208	=208
4FFF#X	16.r	.	2r	.
.	32EE-X	.	.	.
.	12BBBL	.	.	.
.	24DDJk	.	.	.
[4EEE#X	16.r	.	.	.
.	32CC#X	.	.	.
.	12AAAL	.	.	.
.	24CCnJk	.	.	.
!!LO:LB:g=original
=209	=209	=209	=209	=209
2EEE#_	2r	.	2r	.
*	*clefG2	*	*	*
=210	=210	=210	=210	=210
4EEE#]	8gL 8b	.	2r	.
.	8c#XJ 8b-X	.	.	.
4r	8fL 8a	.	.	.
.	8BnJ 8a-X	.	.	.
=211	=211	=211	=211	=211
8c#XL 8f	[2g [2bn	.	2r	.
8GJ 8e	.	.	.	.
8BL 8e-X	.	.	.	.
8FJ 8d	.	.	.	.
=212	=212	=212	=212	=212
8c#X 8f	8gL] 8b]	.	2r	.
8r	8c#XJ 8b-X	.	.	.
4r	8fL 8a	.	.	.
.	8BnJ 8a-X	.	.	.
=213	=213	=213	=213	=213
8c#XL 8f	[2g [2bn	.	2r	.
8GJ 8e	.	.	.	.
8BL 8e-X	.	.	.	.
8FJ 8d	.	.	.	.
=214	=214	=214	=214	=214
2r	2g_ 2b_	.	2r	.
=215	=215	=215	=215	=215
4c#X 4f	2g_ 2b_	.	2r	.
4r	.	.	.	.
=216	=216	=216	=216	=216
2FFF	2g] 2b]	.	2r	.
==	==	==	==	==
*-	*-	*-	*-	*-
!!!system-decoration: {(*)}
!!!filter: flipper -a
!!!RDF**kern: > = above
!!!RDF**kern: < = below
!!!ENC: Bryan Jacob Bell
!!!END: November 2021 to April 2022
!!!PED: Günter Philipp
!!!PTL: Ausgewählte Klavierwerke (Edition Peters)
